!!!COM: Vivaldi, Antonio
!!!OTL: Concerto a violino solo, No. 4
!!!XEN: Violin Concerto No. 4
!!!OTP: L'Inverno
!!!OTA: The Four Seasons, Winter
!!!OPR: Il Cimento dell'armonia e dell'inventione
!!!XEN: The Contest of Harmony and Invention
!!!OPS: Opus 8
!!!ONM: No. 4
!!!OMV: Movement 1.
!!!YEC: Copyright 1996, Center for Computer Assisted Research in the Humanities
!!!YEM: Rights to all derivative electronic formats reserved.
!!!YEM: Refer to licensing agreement for important restrictions.
!!!OMD: Allegro non molto
**kern	**kern	**kern	**kern	**kern	**Bnum
*Icello	*Iviola	*Ivioln	*Ivioln	*Ivioln	*Icemba
*Icemba	*	*	*	*	*
*ICstr	*ICstr	*ICstr	*ICstr	*ICstr	*ICklav
*ICklav	*	*	*	*	*
!cello	!viola 	!violino 2	!violino 1	!violino principale	!continuo
!basso continuo	!	!	!	!	!
! Machester partbook gives the instrumentation as Violoncello, Organo, e Violone	!	!	!	!	!
*clefF4	*clefC3	*clefG2	*clefG2	*clefG2	*
*k[b-e-a-d-]	*k[b-e-a-d-]	*k[b-e-a-d-]	*k[b-e-a-d-]	*k[b-e-a-d-]	*k[b-e-a-d-]
*f:	*f:	*f:	*f:	*f:	*f:
*M4/4	*M4/4	*M4/4	*M4/4	*M4/4	*M4/4
*>Selfridge-Field[S1,etc1,S2,etc2]	*>Selfridge-Field[S1,etc1,S2,etc2]	*>Selfridge-Field[S1,etc1,S2,etc2]	*>Selfridge-Field[S1,etc1,S2,etc2]	*>Selfridge-Field[S1,etc1,S2,etc2]	*>Selfridge-Field[S1,etc1,S2,etc2]
*>Manchester[M1,etc1,M2,etc2]	*>Manchester[M1,etc1,M2,etc2]	*>Manchester[M1,etc1,M2,etc2]	*>Manchester[M1,etc1,M2,etc2]	*>Manchester[M1,etc1,M2,etc2]	*>Manchester[M1,etc1,M2,etc2]
*>Amsterdam[A1,etc1,S2,etc2]	*>Amsterdam[A1,etc1,S2,etc2]	*>Amsterdam[A1,etc1,S2,etc2]	*>Amsterdam[A1,etc1,S2,etc2]	*>Amsterdam[A1,etc1,S2,etc2]	*>Amsterdam[A1,etc1,S2,etc2]
*>S1	*>S1	*>S1	*>S1	*>S1	*>S1
=1-	=1-	=1-	=1-	=1-	=1-
(8F'\L	1r	1r	1r	1r	.
8F'\)	.	.	.	.	.
(8F'\	.	.	.	.	.
8F'\J)	.	.	.	.	.
(8F'\L	.	.	.	.	.
8F'\)	.	.	.	.	.
(8F'\	.	.	.	.	.
8F'\J)	.	.	.	.	.
=2	=2	=2	=2	=2	=2
(8F'\L	(8g'\L	1r	1r	1r	6 4 2
8F'\)	8g'\)	.	.	.	.
(8F'\	(8g'\	.	.	.	.
8F'\J)	8g'\J)	.	.	.	.
(8F'\L	(8g'\L	.	.	.	.
8F'\)	8g'\)	.	.	.	.
(8F'\	(8g'\	.	.	.	.
8F'\J)	8g'\J)	.	.	.	.
=3	=3	=3	=3	=3	=3
(8F'\L	(8g'\L	(8dd-'\L	1r	1r	.
8F'\)	8g'\)	8dd-'\)	.	.	.
(8F'\	(8g'\	(8dd-'\	.	.	.
8F'\J)	8g'\J)	8dd-'\J)	.	.	.
(8F'\L	(8g'\L	(8dd-'\L	.	.	.
8F'\)	8g'\)	8dd-'\)	.	.	.
(8F'\	(8g'\	(8dd-'\	.	.	.
8F'\J)	8g'\J)	8dd-'\J)	.	.	.
=4	=4	=4	=4	=4	=4
(8F'\L	(8g'\L	(8dd-'\L	(8bb-'\L	(8bb-T\L	.
8F'\)	8g'\)	8dd-'\)	8bb-'\)	8bb-T\)	.
(8F'\	(8g'\	(8dd-'\	(8bb-'\	(8bb-T\	.
8F'\J)	8g'\J)	8dd-'\J)	8bb-'\J)	8bb-T\J)	.
(8F'\L	(8g'\L	(8dd-'\L	(8bb-'\L	(8bb-Tx\L	.
8F'\)	8g'\)	8dd-'\)	8bb-'\)	8bb-Tx\)	.
(8F'\	(8g'\	(8dd-'\	(8bb-'\	(8bb-Tx\	.
8F'\J)	8g'\J)	8dd-'\J)	8bb-'\J)	8bb-Tx\J)	.
=5	=5	=5	=5	=5	=5
(8E'\L	(8g'\L	(8dd-'\L	(8bb-'\L	(8bb-Tx\L	7 5
8E'\)	8g'\)	8dd-'\)	8bb-'\)	8bb-Tx\)	.
(8E'\	(8g'\	(8dd-'\	(8bb-'\	(8bb-Tx\	.
8E'\J)	8g'\J)	8dd-'\J)	8bb-'\J)	8bb-Tx\J)	.
(8E'\L	(8g'\L	(8dd-'\L	(8bb-'\L	(8bb-Tx\L	.
8E'\)	8g'\)	8dd-'\)	8bb-'\)	8bb-Tx\)	.
(8E'\	(8g'\	(8dd-'\	(8bb-'\	(8bb-Tx\	.
8E'\J)	8g'\J)	8dd-'\J)	8bb-'\J)	8bb-Tx\J)	.
=6	=6	=6	=6	=6	=6
(8F'\L	(8a-'\L	(8cc'\L	(8aa-'\L	(8aa-Tx\L	.
8F'\)	8a-'\)	8cc'\)	8aa-'\)	8aa-Tx\)	.
(8F'\	(8a-'\	(8cc'\	(8aa-'\	(8aa-Tx\	.
8F'\J)	8a-'\J)	8cc'\J)	8aa-'\J)	8aa-Tx\J)	.
(8F'\L	(8f'\L	(8cc'\L	(8aa-'\L	(8aa-Tx\L	.
8F'\)	8f'\)	8cc'\)	8aa-'\)	8aa-Tx\)	.
(8F'\	(8f'\	(8cc'\	(8aa-'\	(8aa-Tx\	.
8F'\J)	8f'\J)	8cc'\J)	8aa-'\J)	8aa-Tx\J)	.
=7	=7	=7	=7	=7	=7
(8F'\L	(8f'\L	(8b-'\L	(8dd-'\L	(8dd-Tx\L	6 4
8F'\)	8f'\)	8b-'\)	8dd-'\)	8dd-Tx\)	.
(8F'\	(8f'\	(8b-'\	(8dd-'\	(8dd-Tx\	.
8F'\J)	8f'\J)	8b-'\J)	8dd-'\J)	8dd-Tx\J)	.
(8F'\L	(8f'\L	(8b-'\L	(8dd-'\L	(8dd-Tx\L	.
8F'\)	8f'\)	8b-'\)	8dd-'\)	8dd-Tx\)	.
(8F'\	(8f'\	(8b-'\	(8dd-'\	(8dd-Tx\	.
8F'\J)	8f'\J)	8b-'\J)	8dd-'\J)	8dd-Tx\J)	.
=8	=8	=8	=8	=8	=8
(8F'\L	(8an'\L	(8cc'\L	(8ee-'\L	(8ee-tx\L	7 n
8F'\)	8a'\)	8cc'\)	8ee-'\)	8ee-tx\)	.
(8F'\	(8a'\	(8cc'\	(8ee-'\	(8ee-tx\	.
8F'\J)	8a'\J)	8cc'\J)	8ee-'\J)	8ee-tx\J)	.
(8F'\L	(8a'\L	(8cc'\L	(8ee-'\L	(8ee-tx\L	.
8F'\)	8a'\)	8cc'\)	8ee-'\)	8ee-tx\)	.
(8F'\	(8a'\	(8cc'\	(8ee-'\	(8ee-tx\	.
8F'\J)	8a'\J)	8cc'\J)	8ee-'\J)	8ee-tx\J)	.
=9	=9	=9	=9	=9	=9
(8F'\L	(8bn'\L	(8bn'\L	(8ddn'\L	(8ddnTx\L	n6 n4
8F'\)	8g'\)	8b'\)	8dd'\)	8ddTx\)	.
(8F'\	(8g'\	(8b'\	(8dd'\	(8ddTx\	.
8F'\J)	8g'\J)	8b'\J)	8dd'\J)	8ddTx\J)	.
(8F'\L	(8g'\L	(8b'\L	(8dd'\L	(8ddTx\L	.
8F'\)	8g'\)	8b'\)	8dd'\)	8ddTx\)	.
(8F'\	(8b'\	(8b'\	(8dd'\	(8ddTx\	.
8F'\J)	8b'\J)	8b'\J)	8dd'\J)	8ddTx\J)	.
=10	=10	=10	=10	=10	=10
(8F#'\L	(8an'\L	(8cc'\L	(8ee-'\L	(8ee-Tx\L	7 5
8F#'\)	8a'\)	8cc'\)	8ee-'\)	8ee-Tx\)	.
(8F#'\	(8a'\	(8cc'\	(8ee-'\	(8ee-Tx\	.
8F#'\J)	8a'\J)	8cc'\J)	8ee-'\J)	8ee-Tx\J)	.
(8F#'\L	(8a'\L	(8cc'\L	(8ee-'\L	(8ee-Tx\L	.
8F#'\)	8a'\)	8cc'\)	8ee-'\)	8ee-Tx\)	.
(8F#'\	(8a'\	(8cc'\	(8ee-'\	(8ee-Tx\	.
8F#'\J)	8a'\J)	8cc'\J)	8ee-'\J)	8ee-Tx\J)	.
=11	=11	=11	=11	=11	=11
(8G'\L	(8g'\L	(8cc'\L	(8ddn'\L	(8ddnTx\L	n5 4
8G'\)	8g'\)	8cc'\)	8dd'\)	8ddTx\)	.
(8G'\	(8g'\	(8cc'\	(8dd'\	(8ddTx\	.
8G'\J)	8g'\J)	8cc'\J)	8dd'\J)	8ddTx\J)	.
(8GG'/L	(8g'\L	(8bn'\L	(8dd'\L	(8ddTx\L	n
8GG'/)	8g'\)	8b'\)	8dd'\)	8ddTx\)	.
(8GG'/	(8g'\	(8b'\	(8dd'\	(8ddTx\	.
8GG'/J)	8g'\J)	8b'\J)	8dd'\J)	8ddTx\J)	.
*>M1	*>M1	*>M1	*>M1	*>M1	*>M1
=1-	=1-	=1-	=1-	=1-	=1-
(8FTx\L	1r	1r	1r	1r	.
8FTx\)	.	.	.	.	.
(8FTx\	.	.	.	.	.
8FTx\J)	.	.	.	.	.
(8FTx\L	.	.	.	.	.
8FTx\)	.	.	.	.	.
(8FTx\	.	.	.	.	.
8FTx\J)	.	.	.	.	.
=2	=2	=2	=2	=2	=2
(8FTx\L	(8gtx\L	1r	1r	1r	6 4 2
8FTx\)	8gtx\)	.	.	.	.
(8FTx\	(8gtx\	.	.	.	.
8FTx\J)	8gtx\J)	.	.	.	.
(8FTx\L	(8gtx\L	.	.	.	.
8FTx\)	8gtx\)	.	.	.	.
(8FTx\	(8gtx\	.	.	.	.
8FTx\J)	8gtx\J)	.	.	.	.
=3	=3	=3	=3	=3	=3
(8FTx\L	(8gtx\L	(8dd-Tx\L	1r	1r	.
8FTx\)	8gtx\)	8dd-Tx\)	.	.	.
(8FTx\	(8gtx\	(8dd-Tx\	.	.	.
8FTx\J)	8gtx\J)	8dd-Tx\J)	.	.	.
(8FTx\L	(8gtx\L	(8dd-Tx\L	.	.	.
8FTx\)	8gtx\)	8dd-Tx\)	.	.	.
(8FTx\	(8gtx\	(8dd-Tx\	.	.	.
8FTx\J)	8gtx\J)	8dd-Tx\J)	.	.	.
=4	=4	=4	=4	=4	=4
(8FTx\L	(8gtx\L	(8dd-Tx\L	(8bb-Tx\L	(8bb-T\L	.
8FTx\)	8gtx\)	8dd-Tx\)	8bb-Tx\)	8bb-T\)	.
(8FTx\	(8gtx\	(8dd-Tx\	(8bb-Tx\	(8bb-T\	.
8FTx\J)	8gtx\J)	8dd-Tx\J)	8bb-Tx\J)	8bb-T\J)	.
(8FTx\L	(8gtx\L	(8dd-Tx\L	(8bb-Tx\L	(8bb-Tx\L	.
8FTx\)	8gtx\)	8dd-Tx\)	8bb-Tx\)	8bb-Tx\)	.
(8FTx\	(8gtx\	(8dd-Tx\	(8bb-Tx\	(8bb-Tx\	.
8FTx\J)	8gtx\J)	8dd-Tx\J)	8bb-Tx\J)	8bb-Tx\J)	.
=5	=5	=5	=5	=5	=5
(8Entx\L	(8gtx\L	(8dd-Tx\L	(8bb-Tx\L	(8bb-Tx\L	7 5
8Etx\)	8gtx\)	8dd-Tx\)	8bb-Tx\)	8bb-Tx\)	.
(8Etx\	(8gtx\	(8dd-Tx\	(8bb-Tx\	(8bb-Tx\	.
8Etx\J)	8gtx\J)	8dd-Tx\J)	8bb-Tx\J)	8bb-Tx\J)	.
(8Etx\L	(8gtx\L	(8dd-Tx\L	(8bb-Tx\L	(8bb-Tx\L	.
8Etx\)	8gtx\)	8dd-Tx\)	8bb-Tx\)	8bb-Tx\)	.
(8Etx\	(8gtx\	(8dd-Tx\	(8bb-Tx\	(8bb-Tx\	.
8Etx\J)	8gtx\J)	8dd-Tx\J)	8bb-Tx\J)	8bb-Tx\J)	.
=6	=6	=6	=6	=6	=6
(8FTx\L	(8a-Tx\L	(8cctx\L	(8aa-Tx\L	(8aa-Tx\L	.
8FTx\)	8a-Tx\)	8cctx\)	8aa-Tx\)	8aa-Tx\)	.
(8FTx\	(8a-Tx\	(8cctx\	(8aa-Tx\	(8aa-Tx\	.
8FTx\J)	8a-Tx\J)	8cctx\J)	8aa-Tx\J)	8aa-Tx\J)	.
(8FTx\L	(8fTx\L	(8cctx\L	(8aa-Tx\L	(8aa-Tx\L	.
8FTx\)	8fTx\)	8cctx\)	8aa-Tx\)	8aa-Tx\)	.
(8FTx\	(8fTx\	(8cctx\	(8aa-Tx\	(8aa-Tx\	.
8FTx\J)	8fTx\J)	8cctx\J)	8aa-Tx\J)	8aa-Tx\J)	.
=7	=7	=7	=7	=7	=7
(8FTx\L	(8fTx\L	(8b-Tx\L	(8dd-tx\L	(8dd-Tx\L	6 4
8FTx\)	8fTx\)	8b-Tx\)	8dd-tx\)	8dd-Tx\)	.
(8FTx\	(8fTx\	(8b-Tx\	(8dd-tx\	(8dd-Tx\	.
8FTx\J)	8fTx\J)	8b-Tx\J)	8dd-tx\J)	8dd-Tx\J)	.
(8FTx\L	(8fTx\L	(8b-Tx\L	(8dd-tx\L	(8dd-Tx\L	.
8FTx\)	8fTx\)	8b-Tx\)	8dd-tx\)	8dd-Tx\)	.
(8FTx\	(8fTx\	(8b-Tx\	(8dd-tx\	(8dd-Tx\	.
8FTx\J)	8fTx\J)	8b-Tx\J)	8dd-tx\J)	8dd-Tx\J)	.
=8	=8	=8	=8	=8	=8
(8FTx\L	(8antx\L	(8cctx\L	(8ee-Tx\L	(8ee-tx\L	7 n
8FTx\)	8atx\)	8cctx\)	8ee-Tx\)	8ee-tx\)	.
(8FTx\	(8atx\	(8cctx\	(8ee-Tx\	(8ee-tx\	.
8FTx\J)	8atx\J)	8cctx\J)	8ee-Tx\J)	8ee-tx\J)	.
(8FTx\L	(8atx\L	(8cctx\L	(8ee-Tx\L	(8ee-tx\L	.
8FTx\)	8atx\)	8cctx\)	8ee-Tx\)	8ee-tx\)	.
(8FTx\	(8atx\	(8cctx\	(8ee-Tx\	(8ee-tx\	.
8FTx\J)	8atx\J)	8cctx\J)	8ee-Tx\J)	8ee-tx\J)	.
=9	=9	=9	=9	=9	=9
(8FTx\L	(8bntx\L	(8bntx\L	(8ddntx\L	(8ddntx\L	n6 n4
8FTx\)	8gtx\)	8btx\)	8ddtx\)	8ddtx\)	.
(8FTx\	(8gtx\	(8btx\	(8ddtx\	(8ddtx\	.
8FTx\J)	8gtx\J)	8btx\J)	8ddtx\J)	8ddtx\J)	.
(8FTx\L	(8gtx\L	(8btx\L	(8ddtx\L	(8ddtx\L	.
8FTx\)	8gtx\)	8btx\)	8ddtx\)	8ddtx\)	.
(8FTx\	(8btx\	(8btx\	(8ddtx\	(8ddtx\	.
8FTx\J)	8btx\J)	8btx\J)	8ddtx\J)	8ddtx\J)	.
=10	=10	=10	=10	=10	=10
(8F#tx\L	(8antx\L	(8cctx\L	(8ee-Tx\L	(8ee-Tx\L	7 5
8F#tx\)	8atx\)	8cctx\)	8ee-Tx\)	8ee-Tx\)	.
(8F#tx\	(8atx\	(8cctx\	(8ee-Tx\	(8ee-Tx\	.
8F#tx\J)	8atx\J)	8cctx\J)	8ee-Tx\J)	8ee-Tx\J)	.
(8F#tx\L	(8atx\L	(8cctx\L	(8ee-Tx\L	(8ee-Tx\L	.
8F#tx\)	8atx\)	8cctx\)	8ee-Tx\)	8ee-Tx\)	.
(8F#tx\	(8atx\	(8cctx\	(8ee-Tx\	(8ee-Tx\	.
8F#tx\J)	8atx\J)	8cctx\J)	8ee-Tx\J)	8ee-Tx\J)	.
=11	=11	=11	=11	=11	=11
(8Gtx\L	(8gtx\L	(8cctx\L	(8ddntx\L	(8ddntx\L	n5 4
8Gtx\)	8gtx\)	8cctx\)	8ddtx\)	8ddtx\)	.
(8Gtx\	(8gtx\	(8cctx\	(8ddtx\	(8ddtx\	.
8Gtx\J)	8gtx\J)	8cctx\J)	8ddtx\J)	8ddtx\J)	.
(8GGtx/L	(8gtx\L	(8bntx\L	(8ddtx\L	(8ddtx\L	n
8GGtx/)	8gtx\)	8btx\)	8ddtx\)	8ddtx\)	.
(8GGtx/	(8gtx\	(8btx\	(8ddtx\	(8ddtx\	.
8GGtx/J)	8gtx\J)	8btx\J)	8ddtx\J)	8ddtx\J)	.
*>A1	*>A1	*>A1	*>A1	*>A1	*>A1
=1-	=1-	=1-	=1-	=1-	=1-
(8F'\L	1r	1r	1r	1r	.
8F'\)	.	.	.	.	.
(8F'\	.	.	.	.	.
8F'\J)	.	.	.	.	.
(8F'\L	.	.	.	.	.
8F'\)	.	.	.	.	.
(8F'\	.	.	.	.	.
8F'\J)	.	.	.	.	.
=2	=2	=2	=2	=2	=2
(8F\L	(8g\L	1r	1r	1r	6 4 2
8F\)	8g\)	.	.	.	.
(8F\	(8g\	.	.	.	.
8F\J)	8g\J)	.	.	.	.
(8F\L	(8g\L	.	.	.	.
8F\)	8g\)	.	.	.	.
(8F\	(8g\	.	.	.	.
8F\J)	8g\J)	.	.	.	.
=3	=3	=3	=3	=3	=3
(8F\L	(8g\L	(8dd-\L	1r	1r	.
8F\)	8g\)	8dd-\)	.	.	.
(8F\	(8g\	(8dd-\	.	.	.
8F\J)	8g\J)	8dd-\J)	.	.	.
(8F\L	(8g\L	(8dd-\L	.	.	.
8F\)	8g\)	8dd-\)	.	.	.
(8F\	(8g\	(8dd-\	.	.	.
8F\J)	8g\J)	8dd-\J)	.	.	.
=4	=4	=4	=4	=4	=4
(8F\L	(8g\L	(8dd-\L	(8bb-\L	(8bb-T\L	.
8F\)	8g\)	8dd-\)	8bb-\)	8bb-T\)	.
(8F\	(8g\	(8dd-\	(8bb-\	(8bb-T\	.
8F\J)	8g\J)	8dd-\J)	8bb-\J)	8bb-T\J)	.
(8F\L	(8g\L	(8dd-\L	(8bb-\L	(8bb-Tx\L	.
8F\)	8g\)	8dd-\)	8bb-\)	8bb-Tx\)	.
(8F\	(8g\	(8dd-\	(8bb-\	(8bb-Tx\	.
8F\J)	8g\J)	8dd-\J)	8bb-\J)	8bb-Tx\J)	.
=5	=5	=5	=5	=5	=5
(8E\L	(8g\L	(8dd-\L	(8bb-\L	(8bb-Tx\L	7 5
8E\)	8g\)	8dd-\)	8bb-\)	8bb-Tx\)	.
(8E\	(8g\	(8dd-\	(8bb-\	(8bb-Tx\	.
8E\J)	8g\J)	8dd-\J)	8bb-\J)	8bb-Tx\J)	.
(8E\L	(8g\L	(8dd-\L	(8bb-\L	(8bb-Tx\L	.
8E\)	8g\)	8dd-\)	8bb-\)	8bb-Tx\)	.
(8E\	(8g\	(8dd-\	(8bb-\	(8bb-Tx\	.
8E\J)	8g\J)	8dd-\J)	8bb-\J)	8bb-Tx\J)	.
=6	=6	=6	=6	=6	=6
(8F\L	(8a-\L	(8cc\L	(8aa-\L	(8aa-Tx\L	.
8F\)	8a-\)	8cc\)	8aa-\)	8aa-Tx\)	.
(8F\	(8a-\	(8cc\	(8aa-\	(8aa-Tx\	.
8F\J)	8a-\J)	8cc\J)	8aa-\J)	8aa-Tx\J)	.
(8F\L	(8f\L	(8cc\L	(8aa-\L	(8aa-Tx\L	.
8F\)	8f\)	8cc\)	8aa-\)	8aa-Tx\)	.
(8F\	(8f\	(8cc\	(8aa-\	(8aa-Tx\	.
8F\J)	8f\J)	8cc\J)	8aa-\J)	8aa-Tx\J)	.
=7	=7	=7	=7	=7	=7
(8F\L	(8f\L	(8b-\L	(8dd-\L	(8dd-Tx\L	6 4
8F\)	8f\)	8b-\)	8dd-\)	8dd-Tx\)	.
(8F\	(8f\	(8b-\	(8dd-\	(8dd-Tx\	.
8F\J)	8f\J)	8b-\J)	8dd-\J)	8dd-Tx\J)	.
(8F\L	(8f\L	(8b-\L	(8dd-\L	(8dd-Tx\L	.
8F\)	8f\)	8b-\)	8dd-\)	8dd-Tx\)	.
(8F\	(8f\	(8b-\	(8dd-\	(8dd-Tx\	.
8F\J)	8f\J)	8b-\J)	8dd-\J)	8dd-Tx\J)	.
=8	=8	=8	=8	=8	=8
(8F\L	(8an\L	(8cc\L	(8ee-\L	(8ee-tx\L	7 n
8F\)	8a\)	8cc\)	8ee-\)	8ee-tx\)	.
(8F\	(8a\	(8cc\	(8ee-\	(8ee-tx\	.
8F\J)	8a\J)	8cc\J)	8ee-\J)	8ee-tx\J)	.
(8F\L	(8a\L	(8cc\L	(8ee-\L	(8ee-tx\L	.
8F\)	8a\)	8cc\)	8ee-\)	8ee-tx\)	.
(8F\	(8a\	(8cc\	(8ee-\	(8ee-tx\	.
8F\J)	8a\J)	8cc\J)	8ee-\J)	8ee-tx\J)	.
=9	=9	=9	=9	=9	=9
(8F\L	(8bn\L	(8bn\L	(8ddn\L	(8ddnTx\L	n6 n4
8F\)	8g\)	8b\)	8dd\)	8ddTx\)	.
(8F\	(8g\	(8b\	(8dd\	(8ddTx\	.
8F\J)	8g\J)	8b\J)	8dd\J)	8ddTx\J)	.
(8F\L	(8g\L	(8b\L	(8dd\L	(8ddTx\L	.
8F\)	8g\)	8b\)	8dd\)	8ddTx\)	.
(8F\	(8b\	(8b\	(8dd\	(8ddTx\	.
8F\J)	8b\J)	8b\J)	8dd\J)	8ddTx\J)	.
=10	=10	=10	=10	=10	=10
(8F#\L	(8an\L	(8cc\L	(8ee-\L	(8ee-Tx\L	7 5
8F#\)	8a\)	8cc\)	8ee-\)	8ee-Tx\)	.
(8F#\	(8a\	(8cc\	(8ee-\	(8ee-Tx\	.
8F#\J)	8a\J)	8cc\J)	8ee-\J)	8ee-Tx\J)	.
(8F#\L	(8a\L	(8cc\L	(8ee-\L	(8ee-Tx\L	.
8F#\)	8a\)	8cc\)	8ee-\)	8ee-Tx\)	.
(8F#\	(8a\	(8cc\	(8ee-\	(8ee-Tx\	.
8F#\J)	8a\J)	8cc\J)	8ee-\J)	8ee-Tx\J)	.
=11	=11	=11	=11	=11	=11
(8G\L	(8g\L	(8cc\L	(8ddn\L	(8ddnTx\L	n5 4
8G\)	8g\)	8cc\)	8dd\)	8ddTx\)	.
(8G\	(8g\	(8cc\	(8dd\	(8ddTx\	.
8G\J)	8g\J)	8cc\J)	8dd\J)	8ddTx\J)	.
(8GG/L	(8g\L	(8bn\L	(8dd\L	(8ddTx\L	n
8GG/)	8g\)	8b\)	8dd\)	8ddTx\)	.
(8GG/	(8g\	(8b\	(8dd\	(8ddTx\	.
8GG/J)	8g\J)	8b\J)	8dd\J)	8ddTx\J)	.
*>etc1	*>etc1	*>etc1	*>etc1	*>etc1	*>etc1
=12	=12	=12	=12	=12	=12
4C/	4g\	4cc\	4cc\	32cc\LLL	.
.	.	.	.	32ccc\	.
.	.	.	.	32ccc\	.
.	.	.	.	32gg\JJJ	.
.	.	.	.	32gg\LLL	.
.	.	.	.	32ee-\	.
.	.	.	.	32ee-\	.
.	.	.	.	32cc\JJJ	.
4r	4r	4r	4r	32cc\LLL	.
.	.	.	.	32ccc\	.
.	.	.	.	32ccc\	.
.	.	.	.	32gg\JJJ	.
.	.	.	.	32gg\LLL	.
.	.	.	.	32ee-\	.
.	.	.	.	32ee-\	.
.	.	.	.	32cc\JJJ	.
2r	2r	2r	2r	32cc\LLL	.
.	.	.	.	32ccc\	.
.	.	.	.	32bb-\	.
.	.	.	.	32aa-\JJJ	.
.	.	.	.	32gg\LLL	.
.	.	.	.	32ff\	.
.	.	.	.	32ee-\	.
.	.	.	.	32ddn\JJJ	.
.	.	.	.	32cc\LLL	.
.	.	.	.	32ccc\	.
.	.	.	.	32bb-\	.
.	.	.	.	32aa-\JJJ	.
.	.	.	.	32gg\LLL	.
.	.	.	.	32ff\	.
.	.	.	.	32ee-\	.
.	.	.	.	32dd\JJJ	.
=13	=13	=13	=13	=13	=13
2r	2r	2r	2r	32cc\LLL	.
.	.	.	.	32g\	.
.	.	.	.	32cc\	.
.	.	.	.	32ee-\JJJ	.
.	.	.	.	32cc\LLL	.
.	.	.	.	32g\	.
.	.	.	.	32cc\	.
.	.	.	.	32ee-\JJJ	.
.	.	.	.	32cc\LLL	.
.	.	.	.	32g\	.
.	.	.	.	32cc\	.
.	.	.	.	32ee-\JJJ	.
.	.	.	.	32cc\LLL	.
.	.	.	.	32g\	.
.	.	.	.	32cc\	.
.	.	.	.	32ee-\JJJ	.
(8C'/L	(8c'\L	(8e-'/L	(8g'/L	2ct/	.
8C'/)	8c'\)	8e-'/)	8g'/)	.	.
(8C'/	(8c'\	(8e-'/	(8g'/	.	.
8C'/J)	8c'\J)	8e-'/J)	8g'/J)	.	.
=14	=14	=14	=14	=14	=14
(8C'/L	(8c'\L	(8e-'/L	(8g'/L	2r	.
8C'/)	8c'\)	8e-'/)	8g'/)	.	.
(8C'/	(8c'\	(8e-'/	(8g'/	.	.
8C'/J)	8c'\J)	8e-'/J)	8g'/J)	.	.
4C/	4c\	4e-/	4g/	32ee-\LLL	.
.	.	.	.	32eee-\	.
.	.	.	.	32eee-\	.
.	.	.	.	32ccc\JJJ	.
.	.	.	.	32ccc\LLL	.
.	.	.	.	32gg\	.
.	.	.	.	32gg\	.
.	.	.	.	32ee-\JJJ	.
4r	4r	4r	4r	32ee-\LLL	.
.	.	.	.	32eee-\	.
.	.	.	.	32eee-\	.
.	.	.	.	32ccc\JJJ	.
.	.	.	.	32ccc\LLL	.
.	.	.	.	32gg\	.
.	.	.	.	32gg\	.
.	.	.	.	32ee-\JJJ	.
=15	=15	=15	=15	=15	=15
1r	1r	1r	1r	32ee-\LLL	.
.	.	.	.	32eee-\	.
.	.	.	.	32dddn\	.
.	.	.	.	32ccc\JJJ	.
.	.	.	.	32bbn\LLL	.
.	.	.	.	32aan\	.
.	.	.	.	32gg\	.
.	.	.	.	32ff\JJJ	.
.	.	.	.	32ee-\LLL	.
.	.	.	.	32eee-\	.
.	.	.	.	32ddd\	.
.	.	.	.	32ccc\JJJ	.
.	.	.	.	32bb\LLL	.
.	.	.	.	32aa\	.
.	.	.	.	32gg\	.
.	.	.	.	32ff\JJJ	.
.	.	.	.	32ee-\LLL	.
.	.	.	.	32cc\	.
.	.	.	.	32ee-\	.
.	.	.	.	32gg\JJJ	.
.	.	.	.	32ee-\LLL	.
.	.	.	.	32cc\	.
.	.	.	.	32ee-\	.
.	.	.	.	32gg\JJJ	.
.	.	.	.	32ee-\LLL	.
.	.	.	.	32cc\	.
.	.	.	.	32ee-\	.
.	.	.	.	32gg\JJJ	.
.	.	.	.	32ee-\LLL	.
.	.	.	.	32cc\	.
.	.	.	.	32ee-\	.
.	.	.	.	32gg\JJJ	.
=16	=16	=16	=16	=16	=16
(8C'/L	(8c'\L	(8e-'/L	(8g'/L	2e-T/	.
8C'/)	8c'\)	8e-'/)	8g'/)	.	.
(8C'/	(8c'\	(8e-'/	(8g'/	.	.
8C'/J)	8c'\J)	8e-'/J)	8g'/J)	.	.
(8C'/L	(8c'\L	(8e-'/L	(8g'/L	2r	.
8C'/)	8c'\)	8e-'/)	8g'/)	.	.
(8C'/	(8c'\	(8e-'/	(8g'/	.	.
8C'/J)	8c'\J)	8e-'/J)	8g'/J)	.	.
=17	=17	=17	=17	=17	=17
4C/	4c\	4e-/	4g/	32gg\LLL	.
.	.	.	.	32ggg\	.
.	.	.	.	32ggg\	.
.	.	.	.	32eee-\JJJ	.
.	.	.	.	32eee-\LLL	.
.	.	.	.	32ccc\	.
.	.	.	.	32ccc\	.
.	.	.	.	32gg\JJJ	.
4r	4r	4r	4r	32gg\LLL	.
.	.	.	.	32ggg\	.
.	.	.	.	32ggg\	.
.	.	.	.	32eee-\JJJ	.
.	.	.	.	32eee-\LLL	.
.	.	.	.	32ccc\	.
.	.	.	.	32ccc\	.
.	.	.	.	32gg\JJJ	.
2r	2r	2r	2r	32gg\LLL	.
.	.	.	.	32ggg\	.
.	.	.	.	32fff\	.
.	.	.	.	32eee-\JJJ	.
.	.	.	.	32dddn\LLL	.
.	.	.	.	32ccc\	.
.	.	.	.	32bbn\	.
.	.	.	.	32aan\JJJ	.
.	.	.	.	32gg\LLL	.
.	.	.	.	32ggg\	.
.	.	.	.	32fff\	.
.	.	.	.	32eee-\JJJ	.
.	.	.	.	32ddd\LLL	.
.	.	.	.	32ccc\	.
.	.	.	.	32bb\	.
.	.	.	.	32aa\JJJ	.
=18	=18	=18	=18	=18	=18
1r	1r	2r	1r	32gg\LLL	.
.	.	.	.	32ee-\	.
.	.	.	.	32gg\	.
.	.	.	.	32ccc\JJJ	.
.	.	.	.	32gg\LLL	.
.	.	.	.	32ee-\	.
.	.	.	.	32gg\	.
.	.	.	.	32ccc\JJJ	.
.	.	.	.	32gg\LLL	.
.	.	.	.	32ee-\	.
.	.	.	.	32gg\	.
.	.	.	.	32ccc\JJJ	.
.	.	.	.	32gg\LLL	.
.	.	.	.	32ee-\	.
.	.	.	.	32gg\	.
.	.	.	.	32ccc\JJJ	.
.	.	(8cc'\L	.	4cct\	.
.	.	8cc'\)	.	.	.
.	.	(8cc'\	.	4r	.
.	.	8cc'\J)	.	.	.
=19	=19	=19	=19	=19	=19
1r	1r	(8cc'\L	(8dd-'\L	(8dd-'\L	.
.	.	8cc'\)	8dd-'\)	8dd-'\)	.
.	.	(8cc'\	(8dd-'\	(8dd-'\	.
.	.	8cc'\J)	8dd-'\J)	8dd-'\J)	.
.	.	(8b-'\L	(8een'\L	(8een'\L	.
.	.	8b-'\)	8ee'\)	8ee'\)	.
.	.	(8b-'\	(8ee'\	(8ee'\	.
.	.	8b-'\J)	8ee'\J)	8ee'\J)	.
=20	=20	=20	=20	=20	=20
(8F'\L	2r	(8a-'/L	16ff/LL	16ff/LL	.
.	.	.	(16f'/	(16f'/	.
8F'\)	.	8a-'/)	16f'/	16f'/	.
.	.	.	16f'/JJ)	16f'/JJ)	.
(8F'\	.	(8a-'/	(16f'/LL	(16f'/LL	.
.	.	.	16f'/	16f'/	.
8F'\J)	.	8a-'/J)	16f'/	16f'/	.
.	.	.	16f'/JJ)	16f'/JJ)	.
(8F'\L	(8g-'\L	(8b-'\L	(16f'/LL	(16f'/LL	4 b2
.	.	.	16f'/	16f'/	.
8F'\)	8g-'\)	8b-'\)	16f'/	16f'/	.
.	.	.	16f'/JJ)	16f'/JJ)	.
(8F'\	(8g-'\	(8b-'\	(16f'/LL	(16f'/LL	.
.	.	.	16f'/	16f'/	.
8F'\J)	8g-'\J)	8b-'\J)	16f'/	16f'/	.
.	.	.	16f'/JJ)	16f'/JJ)	.
=21	=21	=21	=21	=21	=21
(8E-'\L	(8an'\L	(8cc'\L	(16f'/LL	(16f'/LL	6 n4
.	.	.	16f'/	16f'/	.
8E-'\)	8a'\)	8cc'\)	16f'/	16f'/	.
.	.	.	16f'/JJ)	16f'/JJ)	.
(8E-'\	(8a'\	(8cc'\	(16f'/LL	(16f'/LL	.
.	.	.	16f'/	16f'/	.
8E-'\J)	8a'\J)	8cc'\J)	16f'/	16f'/	.
.	.	.	16f'/JJ)	16f'/JJ)	.
(8D-'\L	(8b-'\L	(8dd-'\L	(16f'/LL	(16f'/LL	.
.	.	.	16f'/	16f'/	.
8D-'\)	8b-'\)	8dd-'\)	16f'/	16f'/	.
.	.	.	16f'/JJ)	16f'/JJ)	.
(8D-'\	(8b-'\	(8dd-'\	(16f'/LL	(16f'/LL	.
.	.	.	16f'/	16f'/	.
8D-'\J)	8b-'\J)	8dd-'\J)	16f'/	16f'/	.
.	.	.	16f'/JJ)	16f'/JJ)	.
=22	=22	=22	=22	=22	=22
(8D-'\L	(8bn'\L	(8dd-'\L	(16f'/LL	(16f'/LL	n6 3
.	.	.	16f'/	16f'/	.
8D-'\)	8b'\)	8dd-'\)	16f'/	16f'/	.
.	.	.	16f'/JJ)	16f'/JJ)	.
(8D-'\	(8b'\	(8dd-'\	(16f'/LL	(16f'/LL	.
.	.	.	16f'/	16f'/	.
8D-'\J)	8b'\J)	8dd-'\J)	16f'/	16f'/	.
.	.	.	16f'/JJ)	16f'/JJ)	.
4C/	4cc\	16g\LL	16en\LL	16en\LL	n
.	.	32een\L	32gg\L	32gg\L	.
.	.	32ee\	32gg\	32gg\	.
.	.	32ee\	32gg\	32gg\	.
.	.	32ee\	32gg\	32gg\	.
.	.	32ee\	32gg\	32gg\	.
.	.	32ee\JJJ	32gg\JJJ	32gg\JJJ	.
4r	4r	16ee\LL	16gg\LL	16gg\LL	.
.	.	16ee\	16gg\	16gg\	.
.	.	16ee\	16gg\	16gg\	.
.	.	16ee\JJ	16gg\JJ	16gg\JJ	.
=23	=23	=23	=23	=23	=23
16F/LL	16cc\LL	16ff\LL	16aa-\LL	16aa-\LL	.
16FF/	16a-\	16cc\	16cc\	16cc\	.
16F/	16cc\	16ff\	16aa-\	16aa-\	.
16FF/JJ	16a-\JJ	16cc\JJ	16cc\JJ	16cc\JJ	.
16F/LL	16cc\LL	16ff\LL	16aa-\LL	16aa-\LL	.
16FF/	16a-\	16cc\	16cc\	16cc\	.
16F/	16cc\	16ff\	16aa-\	16aa-\	.
16FF/JJ	16a-\JJ	16cc\JJ	16cc\JJ	16cc\JJ	.
4BB-/	4a-\	16ff\LL	16dd-\LL	16dd-\LL	.
.	.	32ff\L	32dd-\L	32dd-\L	.
.	.	32ff\	32dd-\	32dd-\	.
.	.	32ff\	32dd-\	32dd-\	.
.	.	32ff\	32dd-\	32dd-\	.
.	.	32ff\	32dd-\	32dd-\	.
.	.	32ff\JJJ	32dd-\JJJ	32dd-\JJJ	.
4r	4r	16ff\LL	16dd-\LL	16dd-\LL	.
.	.	16ff\	16dd-\	16dd-\	.
.	.	16ff\	16dd-\	16dd-\	.
.	.	16ff\JJ	16dd-\JJ	16dd-\JJ	.
=24	=24	=24	=24	=24	=24
16E-/LL	16b-\LL	16ee-\LL	16gg\LL	16gg\LL	.
16EE-/	16g\	16b-\	16dd-\	16dd-\	.
16E-/	16b-\	16ee-\	16gg\	16gg\	.
16EE-/JJ	16g\JJ	16b-\JJ	16dd-\JJ	16dd-\JJ	.
16E-/LL	16b-\LL	16ee-\LL	16gg\LL	16gg\LL	.
16EE-/	16g\	16b-\	16dd-\	16dd-\	.
16E-/	16b-\	16ee-\	16gg\	16gg\	.
16EE-/JJ	16g\JJ	16b-\JJ	16dd-\JJ	16dd-\JJ	.
4AA-/	4g\	16ee-\LL	16cc\LL	16cc\LL	.
.	.	32ee-\L	32cc\L	32cc\L	.
.	.	32ee-\	32cc\	32cc\	.
.	.	32ee-\	32cc\	32cc\	.
.	.	32ee-\	32cc\	32cc\	.
.	.	32ee-\	32cc\	32cc\	.
.	.	32ee-\JJJ	32cc\JJJ	32cc\JJJ	.
4r	4r	16ee-\LL	16cc\LL	16cc\LL	.
.	.	16ee-\	16cc\	16cc\	.
.	.	16ee-\	16cc\	16cc\	.
.	.	16ee-\JJ	16cc\JJ	16cc\JJ	.
=25	=25	=25	=25	=25	=25
16D-/LL	16a-\LL	16dd-\LL	16ff\LL	16ff\LL	.
16DD-/	16f\	16a-\	16cc\	16cc\	.
16D-/	16a-\	16dd-\	16ff\	16ff\	.
16DD-/JJ	16f\JJ	16a-\JJ	16cc\JJ	16cc\JJ	.
16D-/LL	16a-\LL	16dd-\LL	16ff\LL	16ff\LL	.
16DD-/	16f\	16a-\	16cc\	16cc\	.
16D-/	16a-\	16dd-\	16ff\	16ff\	.
16DD-/JJ	16f\JJ	16a-\JJ	16cc\JJ	16cc\JJ	.
4GG/	4f\	16dd-\LL	16b-\LL	16b-\LL	.
.	.	32dd-\L	32b-\L	32b-\L	.
.	.	32dd-\	32b-\	32b-\	.
.	.	32dd-\	32b-\	32b-\	.
.	.	32dd-\	32b-\	32b-\	.
.	.	32dd-\	32b-\	32b-\	.
.	.	32dd-\JJJ	32b-\JJJ	32b-\JJJ	.
4r	4r	16dd-\LL	16b-\LL	16b-\LL	.
.	.	16dd-\	16b-\	16b-\	.
.	.	16dd-\	16b-\	16b-\	.
.	.	16dd-\JJ	16b-\JJ	16b-\JJ	.
=26	=26	=26	=26	=26	=26
16C/LL	16g\LL	16cc/LL	16een\LL	16een\LL	n
16CC/	16en\	16g/	16b-\	16b-\	.
16C/	16g\	16cc/	16ee\	16ee\	.
16CC/JJ	16e\JJ	16g/JJ	16b-\JJ	16b-\JJ	.
16C/LL	16g\LL	16cc/LL	16ee\LL	16ee\LL	.
16CC/	16e\	16g/	16b-\	16b-\	.
16C/	16g\	16cc/	16ee\	16ee\	.
16CC/JJ	16e\JJ	16g/JJ	16b-\JJ	16b-\JJ	.
(8F'\L	4c\	4a-/	4ff\	32ff\LLL	.
.	.	.	.	32ee\	.
.	.	.	.	32ff\	.
.	.	.	.	32gg\JJJ	.
8F'\)	.	.	.	32ff\LLL	.
.	.	.	.	32gg\	.
.	.	.	.	32ee\	.
.	.	.	.	32ff\JJJ	.
(8En'\	4r	4r	4r	32gg\LLL	.
.	.	.	.	32ff\	.
.	.	.	.	32gg\	.
.	.	.	.	32aa-\JJJ	.
8E'\J)	.	.	.	32gg\LLL	.
.	.	.	.	32aa-\	.
.	.	.	.	32ff\	.
.	.	.	.	32gg\JJJ	.
=27	=27	=27	=27	=27	=27
(8F'\L	1r	1r	1r	32aa-\LLL	.
.	.	.	.	32gg\	.
.	.	.	.	32aa-\	.
.	.	.	.	32bb-\JJJ	.
8F'\)	.	.	.	32aa-\LLL	.
.	.	.	.	32bb-\	.
.	.	.	.	32gg\	.
.	.	.	.	32aa-\JJJ	.
(8G'\	.	.	.	32bb-\LLL	.
.	.	.	.	32aa-\	.
.	.	.	.	32bb-\	.
.	.	.	.	32ccc\JJJ	.
8G'\J)	.	.	.	32bb-\LLL	.
.	.	.	.	32ccc\	.
.	.	.	.	32aa-\	.
.	.	.	.	32bb-\JJJ	.
(8A-'\L	.	.	.	8ccc\	.
8A-'\)	.	.	.	32r	.
.	.	.	.	32ccc\LLL	.
.	.	.	.	32ddd-\	.
.	.	.	.	32eee-\JJJ	.
(8A-'\	.	.	.	32fff\LLL	.
.	.	.	.	32ccc\	.
.	.	.	.	32ddd-\	.
.	.	.	.	32eee-\JJJ	.
8A-'\J)	.	.	.	32fff\LLL	.
.	.	.	.	32ccc\	.
.	.	.	.	32ddd-\	.
.	.	.	.	32eee-\JJJ	.
=28	=28	=28	=28	=28	=28
(8A-'\L	1r	1r	1r	(32fff\LLL	.
.	.	.	.	32eee-\)	.
.	.	.	.	(32ddd-\	.
.	.	.	.	32ccc\JJJ)	.
8A-'\)	.	.	.	(32fff\LLL	.
.	.	.	.	32eee-\)	.
.	.	.	.	(32ddd-\	.
.	.	.	.	32ccc\JJJ)	.
(8A-'\	.	.	.	(32fff\LLL	.
.	.	.	.	32eee-\)	.
.	.	.	.	(32ddd-\	.
.	.	.	.	32ccc\JJJ)	.
8A-'\J)	.	.	.	(32fff\LLL	.
.	.	.	.	32eee-\)	.
.	.	.	.	(32ddd-\	.
.	.	.	.	32ccc\JJJ)	.
(8A-'\L	.	.	.	(32ff\LLL	.
.	.	.	.	32gg\	.
.	.	.	.	32aa-\	.
.	.	.	.	32bb-\JJJ	.
8A-'\)	.	.	.	32ccc\LLL	.
.	.	.	.	32ddd-\	.
.	.	.	.	32eee-\	.
.	.	.	.	32fff\JJJ)	.
(8A-'\	.	.	.	(32ff\LLL	.
.	.	.	.	32gg\	.
.	.	.	.	32aa-\	.
.	.	.	.	32bb-\JJJ	.
8A-'\J)	.	.	.	32ccc\LLL	.
.	.	.	.	32ddd-\	.
.	.	.	.	32eee-\	.
.	.	.	.	32fff\JJJ)	.
=29	=29	=29	=29	=29	=29
(8B-'\L	1r	1r	1r	8ddd-\	.
8B-'\)	.	.	.	32r	.
.	.	.	.	32bb-\LLL	.
.	.	.	.	32ccc\	.
.	.	.	.	32ddd-\JJJ	.
(8G'\	.	.	.	32eee-\LLL	.
.	.	.	.	32bb-\	.
.	.	.	.	32ccc\	.
.	.	.	.	32ddd-\JJJ	.
8G'\J)	.	.	.	32eee-\LLL	.
.	.	.	.	32bb-\	.
.	.	.	.	32ccc\	.
.	.	.	.	32ddd-\JJJ	.
(8G'\L	.	.	.	(32eee-\LLL	.
.	.	.	.	32ddd-\)	.
.	.	.	.	(32ccc\	.
.	.	.	.	32bb-\JJJ)	.
8G'\)	.	.	.	(32eee-\LLL	.
.	.	.	.	32ddd-\)	.
.	.	.	.	(32ccc\	.
.	.	.	.	32bb-\JJJ)	.
(8G'\	.	.	.	(32eee-\LLL	.
.	.	.	.	32ddd-\)	.
.	.	.	.	(32ccc\	.
.	.	.	.	32bb-\JJJ)	.
8G'\J)	.	.	.	(32eee-\LLL	.
.	.	.	.	32ddd-\)	.
.	.	.	.	(32ccc\	.
.	.	.	.	32bb-\JJJ)	.
=30	=30	=30	=30	=30	=30
(8G'\L	1r	1r	1r	(32ee-\LLL	.
.	.	.	.	32ff\	.
.	.	.	.	32gg\	.
.	.	.	.	32aa-\JJJ	.
8G'\)	.	.	.	32bb-\LLL	.
.	.	.	.	32ccc\	.
.	.	.	.	32ddd-\	.
.	.	.	.	32eee-\JJJ)	.
(8G'\	.	.	.	(32ee-\LLL	.
.	.	.	.	32ff\	.
.	.	.	.	32gg\	.
.	.	.	.	32aa-\JJJ	.
8G'\J)	.	.	.	32bb-\LLL	.
.	.	.	.	32ccc\	.
.	.	.	.	32ddd-\	.
.	.	.	.	32eee-\JJJ)	.
(8A-'\L	.	.	.	8ccc\	.
8A-'\)	.	.	.	32r	.
.	.	.	.	32aa-\LLL	.
.	.	.	.	32bb-\	.
.	.	.	.	32ccc\JJJ	.
(8F'\	.	.	.	32ddd-\LLL	.
.	.	.	.	32aa-\	.
.	.	.	.	32bb-\	.
.	.	.	.	32ccc\JJJ	.
8F'\J)	.	.	.	32ddd-\LLL	.
.	.	.	.	32aa-\	.
.	.	.	.	32bb-\	.
.	.	.	.	32ccc\JJJ	.
=31	=31	=31	=31	=31	=31
(8F'\L	1r	1r	1r	(32ddd-\LLL	.
.	.	.	.	32ccc\)	.
.	.	.	.	(32bb-\	.
.	.	.	.	32aa-\JJJ)	.
8F'\)	.	.	.	(32ddd-\LLL	.
.	.	.	.	32ccc\)	.
.	.	.	.	(32bb-\	.
.	.	.	.	32aa-\JJJ)	.
(8F'\	.	.	.	(32ddd-\LLL	.
.	.	.	.	32ccc\)	.
.	.	.	.	(32bb-\	.
.	.	.	.	32aa-\JJJ)	.
8F'\J)	.	.	.	(32ddd-\LLL	.
.	.	.	.	32ccc\)	.
.	.	.	.	(32bb-\	.
.	.	.	.	32aa-\JJJ)	.
(8En'\L	.	.	.	32gg\LLL	7
.	.	.	.	32bb-\	.
.	.	.	.	32aa-\	.
.	.	.	.	32gg\JJJ	.
8E-'\)	.	.	.	32ccc\LLL	6
.	.	.	.	32bb-\	.
.	.	.	.	32aa-\	.
.	.	.	.	32gg\JJJ	.
(8Dn'\	.	.	.	32ff\LLL	7
.	.	.	.	32aa-\	.
.	.	.	.	32gg\	.
.	.	.	.	32ff\JJJ	.
8D-'\J)	.	.	.	32bb-\LLL	6
.	.	.	.	32aa-\	.
.	.	.	.	32gg\	.
.	.	.	.	32ff\JJJ	.
=32	=32	=32	=32	=32	=32
(8C'/L	1r	1r	1r	32een\LLL	7 n
.	.	.	.	32cc\	.
.	.	.	.	32b-\	.
.	.	.	.	32cc\JJJ	.
8C'/)	.	.	.	32g\LLL	.
.	.	.	.	32cc\	.
.	.	.	.	32b-\	.
.	.	.	.	32cc\JJJ	.
(8C'/	.	.	.	32ee\LLL	.
.	.	.	.	32gg\	.
.	.	.	.	32ff\	.
.	.	.	.	32gg\JJJ	.
8C'/J)	.	.	.	32bb-\LLL	.
.	.	.	.	32gg\	.
.	.	.	.	32ff\	.
.	.	.	.	32gg\JJJ	.
(8C'/L	.	.	.	32ee\LLL	.
.	.	.	.	32cc\	.
.	.	.	.	32b-\	.
.	.	.	.	32cc\JJJ	.
8C'/)	.	.	.	32g\LLL	.
.	.	.	.	32cc\	.
.	.	.	.	32b-\	.
.	.	.	.	32cc\JJJ	.
(8C'/	.	.	.	32ee\LLL	.
.	.	.	.	32gg\	.
.	.	.	.	32ff\	.
.	.	.	.	32gg\JJJ	.
8C'/J)	.	.	.	32bb-\LLL	.
.	.	.	.	32gg\	.
.	.	.	.	32ff\	.
.	.	.	.	32gg\JJJ	.
=33	=33	=33	=33	=33	=33
(8C'/L	2r	2r	2r	32een\LLL	.
.	.	.	.	32bb-\	.
.	.	.	.	32aa-\	.
.	.	.	.	32bb-\JJJ	.
8C'/)	.	.	.	32ee\LLL	.
.	.	.	.	32gg\	.
.	.	.	.	32ff\	.
.	.	.	.	32gg\JJJ	.
(8C'/	.	.	.	32b-\LLL	.
.	.	.	.	32dd-\	.
.	.	.	.	32cc\	.
.	.	.	.	32dd-\JJJ	.
8C'/J)	.	.	.	32en/LLL	.
.	.	.	.	32g/	.
.	.	.	.	32f/	.
.	.	.	.	32g/JJJ	.
32C/LLL	32g\LLL	32b-\LLL	32en/LLL	4B-/	.
32C/	32g\	32b-\	32e/	.	.
32C/	32g\	32b-\	32e/	.	.
32C/	32g\	32b-\	32e/	.	.
32C/	32g\	32b-\	32e/	.	.
32C/	32g\	32b-\	32e/	.	.
32C/	32g\	32b-\	32e/	.	.
32C/JJJ	32g\JJJ	32b-\JJJ	32e/JJJ	.	.
32C/LLL	32en\LLL	32b-\LLL	32e/LLL	4r	.
32C/	32e\	32b-\	32e/	.	.
32C/	32e\	32b-\	32e/	.	.
32C/	32e\	32b-\	32e/	.	.
32C/	32e\	32b-\	32e/	.	.
32C/	32e\	32b-\	32e/	.	.
32C/	32e\	32b-\	32e/	.	.
32C/JJJ	32e\JJJ	32b-\JJJ	32e/JJJ	.	.
=34	=34	=34	=34	=34	=34
4F\	4c\	4a-/	4f/	32r	.
.	.	.	.	32cc\LLL	.
.	.	.	.	32b-\	.
.	.	.	.	32cc\JJJ	.
.	.	.	.	32a-\LLL	.
.	.	.	.	32cc\	.
.	.	.	.	32b-\	.
.	.	.	.	32cc\JJJ	.
4r	4r	4r	4r	32ff\LLL	.
.	.	.	.	32cc\	.
.	.	.	.	32b-\	.
.	.	.	.	32cc\JJJ	.
.	.	.	.	32a-\LLL	.
.	.	.	.	32cc\	.
.	.	.	.	32b-\	.
.	.	.	.	32cc\JJJ	.
32F\LLL	32cc\LLL	32ee-\LLL	32aan\LLL	32aan\LLL	7 n
32F\	32cc\	32ee-\	32aa\	32aa\	.
32F\	32cc\	32ee-\	32aa\	32aa\	.
32F\	32cc\	32ee-\	32aa\	32aa\	.
32F\	32cc\	32ee-\	32aa\	32aa\	.
32F\	32cc\	32ee-\	32aa\	32aa\	.
32F\	32cc\	32ee-\	32aa\	32aa\	.
32F\JJJ	32cc\JJJ	32ee-\JJJ	32aa\JJJ	32aa\JJJ	.
32F\LLL	32an\LLL	32ee-\LLL	32aa\LLL	32aa\LLL	.
32F\	32a\	32ee-\	32aa\	32aa\	.
32F\	32a\	32ee-\	32aa\	32aa\	.
32F\	32a\	32ee-\	32aa\	32aa\	.
32F\	32a\	32ee-\	32aa\	32aa\	.
32F\	32a\	32ee-\	32aa\	32aa\	.
32F\	32a\	32ee-\	32aa\	32aa\	.
32F\JJJ	32a\JJJ	32ee-\JJJ	32aa\JJJ	32aa\JJJ	.
=35	=35	=35	=35	=35	=35
4BB-/	4f\	4ddn\	4bb-\	32bb-\LLL	.
.	.	.	.	32ddn\	.
.	.	.	.	32cc\	.
.	.	.	.	32dd\JJJ	.
.	.	.	.	32ff\LLL	.
.	.	.	.	32dd\	.
.	.	.	.	32cc\	.
.	.	.	.	32dd\JJJ	.
4r	4r	4r	4r	32b-\LLL	.
.	.	.	.	32dd\	.
.	.	.	.	32cc\	.
.	.	.	.	32dd\JJJ	.
.	.	.	.	32ff\LLL	.
.	.	.	.	32dd\	.
.	.	.	.	32cc\	.
.	.	.	.	32dd\JJJ	.
32G\LLL	32dn\LLL	32ff\LLL	32bbn\LLL	32bbn\LLL	7 n
32G\	32d\	32ff\	32bb\	32bb\	.
32G\	32d\	32ff\	32bb\	32bb\	.
32G\	32d\	32ff\	32bb\	32bb\	.
32G\	32d\	32ff\	32bb\	32bb\	.
32G\	32d\	32ff\	32bb\	32bb\	.
32G\	32d\	32ff\	32bb\	32bb\	.
32G\JJJ	32d\JJJ	32ff\JJJ	32bb\JJJ	32bb\JJJ	.
32G\LLL	32Bn/LLL	32ff\LLL	32bb\LLL	32bb\LLL	.
32G\	32B/	32ff\	32bb\	32bb\	.
32G\	32B/	32ff\	32bb\	32bb\	.
32G\	32B/	32ff\	32bb\	32bb\	.
32G\	32B/	32ff\	32bb\	32bb\	.
32G\	32B/	32ff\	32bb\	32bb\	.
32G\	32B/	32ff\	32bb\	32bb\	.
32G\JJJ	32B/JJJ	32ff\JJJ	32bb\JJJ	32bb\JJJ	.
=36	=36	=36	=36	=36	=36
4C/	4G/	4ee-\	4ccc\	32ccc\LLL	.
.	.	.	.	32ee-\	.
.	.	.	.	32ddn\	.
.	.	.	.	32ee-\JJJ	.
.	.	.	.	32gg\LLL	.
.	.	.	.	32ee-\	.
.	.	.	.	32dd\	.
.	.	.	.	32ee-\JJJ	.
4r	4r	4r	4r	32ccc\LLL	.
.	.	.	.	32ee-\	.
.	.	.	.	32dd\	.
.	.	.	.	32ee-\JJJ	.
.	.	.	.	32gg\LLL	.
.	.	.	.	32ee-\	.
.	.	.	.	32dd\	.
.	.	.	.	32cc\JJJ	.
32BB-/LLL	32f\LLL	32a-/LLL	32ddn\LLL	32dd\LLL	7 n
32BB-/	32f\	32a-/	32dd\	32dd\	.
32BB-/	32f\	32a-/	32dd\	32dd\	.
32BB-/	32f\	32a-/	32dd\	32dd\	.
32BB-/	32f\	32a-/	32dd\	32dd\	.
32BB-/	32f\	32a-/	32dd\	32dd\	.
32BB-/	32f\	32a-/	32dd\	32dd\	.
32BB-/JJJ	32f\JJJ	32a-/JJJ	32dd\JJJ	32dd\JJJ	.
32BB-/LLL	32dn\LLL	32a-/LLL	32dd\LLL	32dd\LLL	.
32BB-/	32d\	32a-/	32dd\	32dd\	.
32BB-/	32d\	32a-/	32dd\	32dd\	.
32BB-/	32d\	32a-/	32dd\	32dd\	.
32BB-/	32d\	32a-/	32dd\	32dd\	.
32BB-/	32d\	32a-/	32dd\	32dd\	.
32BB-/	32d\	32a-/	32dd\	32dd\	.
32BB-/JJJ	32d\JJJ	32a-/JJJ	32dd\JJJ	32dd\JJJ	.
!!  Source has two 64ths at the end of this measure in place of a single 32nd.  
=37	=37	=37	=37	=37	=37
4E-\	4B-/	4g/	4ee-\	32ee-/LLL	.
.	.	.	.	32g/	.
.	.	.	.	32f/	.
.	.	.	.	32g/JJJ	.
.	.	.	.	32ee-/LLL	.
.	.	.	.	32g/	.
.	.	.	.	32f/	.
.	.	.	.	32g/JJJ	.
4r	4r	4r	4r	32ee-/LLL	.
.	.	.	.	32g/	.
.	.	.	.	32f/	.
.	.	.	.	32g/JJJ	.
.	.	.	.	32ee-/LLL	.
.	.	.	.	32g/	.
.	.	.	.	32f/	.
.	.	.	.	32g/JJJ	.
32AA-/LLL	32c\LLL	32f/LLL	32ee-\LLL	32ee-\LLL	6 5
32AA-/	32c\	32f/	32ee-\	32ee-\	.
32AA-/	32c\	32f/	32ee-\	32ee-\	.
32AA-/	32c\	32f/	32ee-\	32ee-\	.
32AA-/	32c\	32f/	32ee-\	32ee-\	.
32AA-/	32c\	32f/	32ee-\	32ee-\	.
32AA-/	32c\	32f/	32ee-\	32ee-\	.
32AA-/JJJ	32c\JJJ	32f/JJJ	32ee-\JJJ	32ee-\JJJ	.
32AA-/LLL	32c\LLL	32f/LLL	32ee-\LLL	32ee-\LLL	.
32AA-/	32c\	32f/	32ee-\	32ee-\	.
32AA-/	32c\	32f/	32ee-\	32ee-\	.
32AA-/	32c\	32f/	32ee-\	32ee-\	.
32AA-/	32c\	32f/	32ee-\	32ee-\	.
32AA-/	32c\	32f/	32ee-\	32ee-\	.
32AA-/	32c\	32f/	32ee-\	32ee-\	.
32AA-/JJJ	32c\JJJ	32f/JJJ	32ee-\JJJ	32ee-\JJJ	.
=38	=38	=38	=38	=38	=38
32BB-/LLL	32B-/LLL	32f/LLL	32ddn\LLL	32ddn\LLL	n
32BB-/	32B-/	32f/	32dd\	32dd\	.
32BB-/	32B-/	32f/	32dd\	32dd\	.
32BB-/	32B-/	32f/	32dd\	32dd\	.
32BB-/	32B-/	32f/	32dd\	32dd\	.
32BB-/	32B-/	32f/	32dd\	32dd\	.
32BB-/	32B-/	32f/	32dd\	32dd\	.
32BB-/JJJ	32B-/JJJ	32f/JJJ	32dd\JJJ	32dd\JJJ	.
32BB-/LLL	32B-/LLL	32f/LLL	32dd\LLL	32dd\LLL	.
32BB-/	32B-/	32f/	32dd\	32dd\	.
32BB-/	32B-/	32f/	32dd\	32dd\	.
32BB-/	32B-/	32f/	32dd\	32dd\	.
32BB-/	32B-/	32f/	32dd\	32dd\	.
32BB-/	32B-/	32f/	32dd\	32dd\	.
32BB-/	32B-/	32f/	32dd\	32dd\	.
32BB-/JJJ	32B-/JJJ	32f/JJJ	32dd\JJJ	32dd\JJJ	.
(8E-'\L	4B-/	4g/	4ee-\	4ee-\	.
8E-'\)	.	.	.	.	.
(8E-'\	4r	4r	4r	4r	.
8E-'\J)	.	.	.	.	.
=39	=39	=39	=39	=39	=39
(8E-'\L	(8f'\L	2r	1r	1r	5 4 2
8E-'\)	8f'\)	.	.	.	.
(8E-'\	(8f'\	.	.	.	.
8E-'\J)	8f'\J)	.	.	.	.
(8E-'\L	(8f'\L	(8a-'/L	.	.	.
8E-'\)	8f'\)	8a-'/)	.	.	.
(8E-'\	(8f'\	(8a-'/	.	.	.
8E-'\J)	8f'\J)	8a-'/J)	.	.	.
=40	=40	=40	=40	=40	=40
(8E-'\L	(8f'\L	(8a-'/L	(8b-'\L	(8b-'\L	.
8E-'\)	8f'\)	8a-'/)	8b-'\)	8b-'\)	.
(8E-'\	(8f'\	(8a-'/	(8b-'\	(8b-'\	.
8E-'\J)	8f'\J)	8a-'/J)	8b-'\J)	8b-'\J)	.
(8Dn'\L	(8f'\L	(8a-'/L	(8b-'\L	(8b-'\L	6 5
8D'\)	8f'\)	8a-'/)	8b-'\)	8b-'\)	.
(8D'\	(8f'\	(8a-'/	(8b-'\	(8b-'\	.
8D'\J)	8f'\J)	8a-'/J)	8b-'\J)	8b-'\J)	.
=41	=41	=41	=41	=41	=41
(8E-'\L	(8g'\L	(8g'/L	(8b-'\L	(8b-'\L	.
8E-'\)	8g'\)	8g'/)	8b-'\)	8b-'\)	.
(8E-'\	(8g'\	(8g'/	(8b-'\	(8b-'\	.
8E-'\J)	8g'\J)	8g'/J)	8b-'\J)	8b-'\J)	.
(8E-'\L	(8B-'/L	(8g'/L	(16dd-'\LL	(16dd-'\LL	b7
.	.	.	16dd-'\	16dd-'\	.
8E-'\)	8B-'/)	8g'/)	16dd-'\	16dd-'\	.
.	.	.	16dd-'\JJ	16dd-'\JJ	.
(8E-'\	(8B-'/	(8g'/	16dd-'\LL	16dd-'\LL	.
.	.	.	16dd-'\	16dd-'\	.
8E-'\J)	8B-'/J)	8g'/J)	16dd-'\	16dd-'\	.
.	.	.	16dd-'\JJ)	16dd-'\JJ)	.
=42	=42	=42	=42	=42	=42
(8AA-'/L	(8c'\L	(8e-'/L	(8cc'\L	(8cc'\L	.
8AA-'/)	8c'\)	8e-'/)	8cc'\)	8cc'\)	.
(8AA-'/	(8c'\	(8e-'/	(8cc'\	(8cc'\	.
8AA-'/J)	8c'\J)	8e-'/J)	8cc'\J)	8cc'\J)	.
(8FF'/L	(8c'\L	(8an'/L	(16ee-'\LL	(16ee-'\LL	7 n
.	.	.	16ee-'\	16ee-'\	.
8FF'/)	8c'\)	8a'/)	16ee-'\	16ee-'\	.
.	.	.	16ee-'\JJ	16ee-'\JJ	.
(8FF'/	(8c'\	(8a'/	16ee-'\LL	16ee-'\LL	.
.	.	.	16ee-'\	16ee-'\	.
8FF'/J)	8c'\J)	8a'/J)	16ee-'\	16ee-'\	.
.	.	.	16ee-'\JJ)	16ee-'\JJ)	.
=43	=43	=43	=43	=43	=43
(8BB-'/L	(8B-'/L	(8f'/L	(8ddn'\L	(8ddn'\L	n
8BB-'/)	8B-'/)	8f'/)	8dd'\)	8dd'\)	.
(8BB-'/	(8B-'/	(8f'/	(8dd'\	(8dd'\	.
8BB-'/J)	8B-'/J)	8f'/J)	8dd'\J)	8dd'\J)	.
(8BB-'/L	(8dn'\L	(8ff'\L	(16aa-'\LL	(16aa-'\LL	7 n
.	.	.	16aa-'\	16aa-'\	.
8BB-'/)	8d'\)	8ff'\)	16aa-'\	16aa-'\	.
.	.	.	16aa-'\JJ	16aa-'\JJ	.
(8BB-'/	(8d'\	(8ff'\	16aa-'\LL	16aa-'\LL	.
.	.	.	16aa-'\	16aa-'\	.
8BB-'/J)	8d'\J)	8ff'\J)	16aa-'\	16aa-'\	.
.	.	.	16aa-'\JJ)	16aa-'\JJ)	.
*>S2	*>S2	*>S2	*>S2	*>S2	*>S2
!! Selfridge-Field edition.
=44	=44	=44	=44	=44	=44
4E-\	4B-/	4ee-\	4gg\	(16gg\LL	.
.	.	.	.	16eee-`\	.
.	.	.	.	16eee-`\	.
.	.	.	.	16bb-`\JJ	.
4r	4r	4r	4r	16bb-`\LL	.
.	.	.	.	16gg`\	.
.	.	.	.	16gg`\	.
.	.	.	.	16ee-`\JJ)	.
4G\	2r	2r	2r	(8ee-\L	.
.	.	.	.	8gg\	.
4E-\	.	.	.	8bb-\	.
.	.	.	.	8ddd-\J)	.
=45	=45	=45	=45	=45	=45
4AA-/	1r	1r	1r	(16ccc\LL	.
.	.	.	.	16fff`\	.
.	.	.	.	16fff`\	.
.	.	.	.	16ccc`\JJ	.
4r	.	.	.	16ccc`\LL	.
.	.	.	.	16aan`\	.
.	.	.	.	16aa`\	.
.	.	.	.	16ff`\JJ)	.
4An\	.	.	.	(8ff\L	.
.	.	.	.	8aa\	.
4F\	.	.	.	8ccc\	.
.	.	.	.	8eee-\J)	.
=46	=46	=46	=46	=46	=46
4BB-/	1r	1r	1r	(16dddn\LL	.
.	.	.	.	16ggg`\	.
.	.	.	.	16ggg`\	.
.	.	.	.	16ddd`\JJ	.
4r	.	.	.	16ddd`\LL	.
.	.	.	.	16bbn`\	.
.	.	.	.	16bb`\	.
.	.	.	.	16gg`\JJ)	.
4Bn\	.	.	.	(8gg\L	.
.	.	.	.	8bb\	.
4G\	.	.	.	8ddd\	.
.	.	.	.	8fff\J)	.
*>M2	*>M2	*>M2	*>M2	*>M2	*>M2
!! Manchester partbooks.
=44	=44	=44	=44	=44	=44
4E-\	4B-/	4ee-\	4gg\	(16gg\LL	.
.	.	.	.	16eee-'\	.
.	.	.	.	16eee-'\	.
.	.	.	.	16bb-'\JJ	.
4r	4r	4r	4r	16bb-'\LL	.
.	.	.	.	16gg'\	.
.	.	.	.	16gg'\	.
.	.	.	.	16ee-'\JJ)	.
4G\	2r	2r	2r	(8ee-\L	.
.	.	.	.	8gg\	.
4E-\	.	.	.	8bb-\	.
.	.	.	.	8ddd-\J)	.
=45	=45	=45	=45	=45	=45
4AA-/	1r	1r	1r	(16ccc\LL	.
.	.	.	.	16fff'\	.
.	.	.	.	16fff'\	.
.	.	.	.	16ccc'\JJ	.
4r	.	.	.	16ccc'\LL	.
.	.	.	.	16aan'\	.
.	.	.	.	16aa'\	.
.	.	.	.	16ff'\JJ)	.
4An\	.	.	.	(8ff\L	.
.	.	.	.	8aa\	.
4F\	.	.	.	8ccc\	.
.	.	.	.	8eee-\J)	.
=46	=46	=46	=46	=46	=46
4BB-/	1r	1r	1r	(16dddn\LL	.
.	.	.	.	16ggg'\	.
.	.	.	.	16ggg'\	.
.	.	.	.	16ddd'\JJ	.
4r	.	.	.	16ddd'\LL	.
.	.	.	.	16bbn'\	.
.	.	.	.	16bb'\	.
.	.	.	.	16gg'\JJ)	.
4Bn\	.	.	.	(8gg\L	.
.	.	.	.	8bb\	.
4G\	.	.	.	8ddd\	.
.	.	.	.	8fff\J)	.
*>etc2	*>etc2	*>etc2	*>etc2	*>etc2	*>etc2
=47	=47	=47	=47	=47	=47
4C/	(8c'\L	16ee-\LL	16ccc\LL	32eee-\LLL 32ccc\	.
.	.	.	.	32eee-\ 32ccc\	.
.	.	16ee-\	16ccc\	32eee-\ 32ccc\	.
.	.	.	.	32eee-\ 32ccc\	.
.	8c'\)	16ee-\	16ccc\	32eee-\ 32ccc\	.
.	.	.	.	32eee-\ 32ccc\	.
.	.	16ee-\JJ	16ccc\JJ	32eee-\ 32ccc\	.
.	.	.	.	32eee-\JJJ 32ccc\	.
4r	(8c'\	16ee-\LL	16ccc\LL	32eee-\LLL 32ccc\	.
.	.	.	.	32eee-\ 32ccc\	.
.	.	16ee-\	16ccc\	32eee-\ 32ccc\	.
.	.	.	.	32eee-\ 32ccc\	.
.	8c'\J)	16ee-\	16ccc\	32eee-\ 32ccc\	.
.	.	.	.	32eee-\ 32ccc\	.
.	.	16ee-\JJ	16ccc\JJ	32eee-\ 32ccc\	.
.	.	.	.	32eee-\JJJ 32ccc\	.
2r	(8f'\L	16ddn\LL	16ccc\LL	32dddnx\LLL 32ccc\	.
.	.	.	.	32ddd\ 32ccc\	.
.	.	16dd\	16ccc\	32ddd\ 32ccc\	.
.	.	.	.	32ddd\ 32ccc\	.
.	8f'\)	16dd\	16ccc\	32ddd\ 32ccc\	.
.	.	.	.	32ddd\ 32ccc\	.
.	.	16dd\JJ	16ccc\JJ	32ddd\ 32ccc\	.
.	.	.	.	32ddd\JJJ 32ccc\	.
.	(8f'\	16dd\LL	16ccc\LL	32ddd\LLL 32ccc\	.
.	.	.	.	32ddd\ 32ccc\	.
.	.	16dd\	16ccc\	32ddd\ 32ccc\	.
.	.	.	.	32ddd\ 32ccc\	.
.	8f'\J)	16dd\	16ccc\	32ddd\ 32ccc\	.
.	.	.	.	32ddd\ 32ccc\	.
.	.	16dd\JJ	16ccc\JJ	32ddd\ 32ccc\	.
.	.	.	.	32ddd\JJJ 32ccc\	.
=48	=48	=48	=48	=48	=48
1r	(8g'\L	16ddn\LL	16bb-\LL	32dddnx\LLL 32bb-\	.
.	.	.	.	32ddd\ 32bb-\	.
.	.	16dd\	16bb-\	32ddd\ 32bb-\	.
.	.	.	.	32ddd\ 32bb-\	.
.	8g'\)	16dd\	16bb-\	32ddd\ 32bb-\	.
.	.	.	.	32ddd\ 32bb-\	.
.	.	16dd\JJ	16bb-\JJ	32ddd\ 32bb-\	.
.	.	.	.	32ddd\JJJ 32bb-\	.
.	(8g'\	16dd\LL	16bb-\LL	32ddd\LLL 32bb-\	.
.	.	.	.	32ddd\ 32bb-\	.
.	.	16dd\	16bb-\	32ddd\ 32bb-\	.
.	.	.	.	32ddd\ 32bb-\	.
.	8g'\J)	16dd\	16bb-\	32ddd\ 32bb-\	.
.	.	.	.	32ddd\ 32bb-\	.
.	.	16dd\JJ	16bb-\JJ	32ddd\ 32bb-\	.
.	.	.	.	32ddd\JJJ 32bb-\	.
.	(8g'\L	16gg\LL	16bb-\LL	32ggg\LLL 32bb-\	.
.	.	.	.	32ggg\ 32bb-\	.
.	.	16gg\	16bb-\	32ggg\ 32bb-\	.
.	.	.	.	32ggg\ 32bb-\	.
.	8g'\)	16gg\	16bb-\	32ggg\ 32bb-\	.
.	.	.	.	32ggg\ 32bb-\	.
.	.	16gg\JJ	16bb-\JJ	32ggg\ 32bb-\	.
.	.	.	.	32ggg\JJJ 32bb-\	.
.	(8g'\	16gg\LL	16bb-\LL	32ggg\LLL 32bb-\	.
.	.	.	.	32ggg\ 32bb-\	.
.	.	16gg\	16bb-\	32ggg\ 32bb-\	.
.	.	.	.	32ggg\ 32bb-\	.
.	8g'\J)	16gg\	16bb-\	32ggg\ 32bb-\	.
.	.	.	.	32ggg\ 32bb-\	.
.	.	16gg\JJ	16bb-\JJ	32ggg\ 32bb-\	.
.	.	.	.	32ggg\JJJ 32bb-\	.
=49	=49	=49	=49	=49	=49
1r	(8c'\L	16gg\LL	16aa-\LL	32ggg\LLL 32aa-\	.
.	.	.	.	32ggg\ 32aa-\	.
.	.	16gg\	16aa-\	32ggg\ 32aa-\	.
.	.	.	.	32ggg\ 32aa-\	.
.	8c'\)	16gg\	16aa-\	32ggg\ 32aa-\	.
.	.	.	.	32ggg\ 32aa-\	.
.	.	16gg\JJ	16aa-\JJ	32ggg\ 32aa-\	.
.	.	.	.	32ggg\JJJ 32aa-\	.
.	(8c'\	16gg\LL	16aa-\LL	32ggg\LLL 32aa-\	.
.	.	.	.	32ggg\ 32aa-\	.
.	.	16gg\	16aa-\	32ggg\ 32aa-\	.
.	.	.	.	32ggg\ 32aa-\	.
.	8c'\J)	16gg\	16aa-\	32ggg\ 32aa-\	.
.	.	.	.	32ggg\ 32aa-\	.
.	.	16gg\JJ	16aa-\JJ	32ggg\ 32aa-\	.
.	.	.	.	32ggg\JJJ 32aa-\	.
.	(8dn'\L	16ff\LL	16aa-\LL	32fff\LLL 32aa-\	.
.	.	.	.	32fff\ 32aa-\	.
.	.	16ff\	16aa-\	32fff\ 32aa-\	.
.	.	.	.	32fff\ 32aa-\	.
.	8d'\)	16ff\	16aa-\	32fff\ 32aa-\	.
.	.	.	.	32fff\ 32aa-\	.
.	.	16ff\JJ	16aa-\JJ	32fff\ 32aa-\	.
.	.	.	.	32fff\JJJ 32aa-\	.
.	(8d'\	16ff\LL	16aa-\LL	32fff\LLL 32aa-\	.
.	.	.	.	32fff\ 32aa-\	.
.	.	16ff\	16aa-\	32fff\ 32aa-\	.
.	.	.	.	32fff\ 32aa-\	.
.	8d'\J)	16ff\	16aa-\	32fff\ 32aa-\	.
.	.	.	.	32fff\ 32aa-\	.
.	.	16ff\JJ	16aa-\JJ	32fff\ 32aa-\	.
.	.	.	.	32fff\JJJ 32aa-\	.
=50	=50	=50	=50	=50	=50
1r	(8e-'\L	16ff\LL	16gg\LL	32fff\LLL 32gg\	.
.	.	.	.	32fff\ 32gg\	.
.	.	16ff\	16gg\	32fff\ 32gg\	.
.	.	.	.	32fff\ 32gg\	.
.	8e-'\)	16ff\	16gg\	32fff\ 32gg\	.
.	.	.	.	32fff\ 32gg\	.
.	.	16ff\JJ	16gg\JJ	32fff\ 32gg\	.
.	.	.	.	32fff\JJJ 32gg\	.
.	(8e-'\	16ff\LL	16gg\LL	32fff\LLL 32gg\	.
.	.	.	.	32fff\ 32gg\	.
.	.	16ff\	16gg\	32fff\ 32gg\	.
.	.	.	.	32fff\ 32gg\	.
.	8e-'\J)	16ff\	16gg\	32fff\ 32gg\	.
.	.	.	.	32fff\ 32gg\	.
.	.	16ff\JJ	16gg\JJ	32fff\ 32gg\	.
.	.	.	.	32fff\JJJ 32gg\	.
.	(8e-'\L	16ee-\LL	16ccc\LL	32eee-\LLL 32ccc\	.
.	.	.	.	32eee-\ 32ccc\	.
.	.	16ee-\	16ccc\	32eee-\ 32ccc\	.
.	.	.	.	32eee-\ 32ccc\	.
.	8e-'\)	16ee-\	16ccc\	32eee-\ 32ccc\	.
.	.	.	.	32eee-\ 32ccc\	.
.	.	16ee-\JJ	16ccc\JJ	32eee-\ 32ccc\	.
.	.	.	.	32eee-\JJJ 32ccc\	.
.	(8e-'\	16ee-\LL	16ccc\LL	32eee-\LLL 32ccc\	.
.	.	.	.	32eee-\ 32ccc\	.
.	.	16ee-\	16ccc\	32eee-\ 32ccc\	.
.	.	.	.	32eee-\ 32ccc\	.
.	8e-'\J)	16ee-\	16ccc\	32eee-\ 32ccc\	.
.	.	.	.	32eee-\ 32ccc\	.
.	.	16ee-\JJ	16ccc\JJ	32eee-\ 32ccc\	.
.	.	.	.	32eee-\JJJ 32ccc\	.
=51	=51	=51	=51	=51	=51
1r	(8f'\L	16dd-\LL	16ccc\LL	32ddd-\LLL 32ccc\	.
.	.	.	.	32ddd-\ 32ccc\	.
.	.	16dd-\	16ccc\	32ddd-\ 32ccc\	.
.	.	.	.	32ddd-\ 32ccc\	.
.	8f'\)	16dd-\	16ccc\	32ddd-\ 32ccc\	.
.	.	.	.	32ddd-\ 32ccc\	.
.	.	16dd-\JJ	16ccc\JJ	32ddd-\ 32ccc\	.
.	.	.	.	32ddd-\JJJ 32ccc\	.
.	(8g'\	16dd-\LL	16bb-\LL	32ddd-\LLL 32bb-\	.
.	.	.	.	32ddd-\ 32bb-\	.
.	.	16dd-\	16bb-\	32ddd-\ 32bb-\	.
.	.	.	.	32ddd-\ 32bb-\	.
.	8g'\J)	16dd-\	16bb-\	32ddd-\ 32bb-\	.
.	.	.	.	32ddd-\ 32bb-\	.
.	.	16dd-\JJ	16bb-\JJ	32ddd-\ 32bb-\	.
.	.	.	.	32ddd-\JJJ 32bb-\	.
.	(8a-'\L	16cc\LL	16bb-\LL	32ccc\LLL 32bb-\	.
.	.	.	.	32ccc\ 32bb-\	.
.	.	16cc\	16bb-\	32ccc\ 32bb-\	.
.	.	.	.	32ccc\ 32bb-\	.
.	8a-'\)	16cc\	16bb-\	32ccc\ 32bb-\	.
.	.	.	.	32ccc\ 32bb-\	.
.	.	16cc\JJ	16bb-\JJ	32ccc\ 32bb-\	.
.	.	.	.	32ccc\JJJ 32bb-\	.
.	(8a-'\	16cc\LL	16aa-\LL	32ccc\LLL 32aa-\	.
.	.	.	.	32ccc\ 32aa-\	.
.	.	16cc\	16aa-\	32ccc\ 32aa-\	.
.	.	.	.	32ccc\ 32aa-\	.
.	8a-'\J)	16cc\	16aa-\	32ccc\ 32aa-\	.
.	.	.	.	32ccc\ 32aa-\	.
.	.	16cc\JJ	16aa-\JJ	32ccc\ 32aa-\	.
.	.	.	.	32ccc\JJJ 32aa-\	.
=52	=52	=52	=52	=52	=52
1r	(8dn'\L	16b-\LL	16aa-\LL	32bb-\LLL 32aa-\	.
.	.	.	.	32bb-\ 32aa-\	.
.	.	16b-\	16aa-\	32bb-\ 32aa-\	.
.	.	.	.	32bb-\ 32aa-\	.
.	8d'\)	16b-\	16aa-\	32bb-\ 32aa-\	.
.	.	.	.	32bb-\ 32aa-\	.
.	.	16b-\JJ	16aa-\JJ	32bb-\ 32aa-\	.
.	.	.	.	32bb-\JJJ 32aa-\	.
.	(8e-'\	16b-\LL	16gg\LL	32bb-\LLL 32gg\	.
.	.	.	.	32bb-\ 32gg\	.
.	.	16b-\	16gg\	32bb-\ 32gg\	.
.	.	.	.	32bb-\ 32gg\	.
.	8e-'\J)	16b-\	16gg\	32bb-\ 32gg\	.
.	.	.	.	32bb-\ 32gg\	.
.	.	16b-\JJ	16gg\JJ	32bb-\ 32gg\	.
.	.	.	.	32bb-\JJJ 32gg\	.
.	(8f'\L	16a-/LL	16gg\LL	32aa-\LLL 32gg\	.
.	.	.	.	32aa-\ 32gg\	.
.	.	16a-/	16gg\	32aa-\ 32gg\	.
.	.	.	.	32aa-\ 32gg\	.
.	8f'\)	16a-/	16gg\	32aa-\ 32gg\	.
.	.	.	.	32aa-\ 32gg\	.
.	.	16a-/JJ	16gg\JJ	32aa-\ 32gg\	.
.	.	.	.	32aa-\JJJ 32gg\	.
.	(8f'\	16a-/LL	16ff\LL	32aa-\LLL 32ff\	.
.	.	.	.	32aa-\ 32ff\	.
.	.	16a-/	16ff\	32aa-\ 32ff\	.
.	.	.	.	32aa-\ 32ff\	.
.	8f'\J)	16a-/	16ff\	32aa-\ 32ff\	.
.	.	.	.	32aa-\ 32ff\	.
.	.	16a-/JJ	16ff\JJ	32aa-\ 32ff\	.
.	.	.	.	32aa-\JJJ 32ff\	.
=53	=53	=53	=53	=53	=53
1r	(8Bn'/L	16g/LL	16ff\LL	32gg\LLL 32ff\	.
.	.	.	.	32gg\ 32ff\	.
.	.	16g/	16ff\	32gg\ 32ff\	.
.	.	.	.	32gg\ 32ff\	.
.	8B'/)	16g/	16ff\	32gg\ 32ff\	.
.	.	.	.	32gg\ 32ff\	.
.	.	16g/JJ	16ff\JJ	32gg\ 32ff\	.
.	.	.	.	32gg\JJJ 32ff\	.
.	(8c'/	16gg\LL	16ee-\LL	32gg\LLL 32ee-\	.
.	.	.	.	32gg\ 32ee-\	.
.	.	16gg\	16ee-\	32gg\ 32ee-\	.
.	.	.	.	32gg\ 32ee-\	.
.	8c'/J)	16gg\	16ee-\	32gg\ 32ee-\	.
.	.	.	.	32gg\ 32ee-\	.
.	.	16gg\JJ	16ee-\JJ	32gg\ 32ee-\	.
.	.	.	.	32gg\JJJ 32ee-\	.
.	(8d-x'\L	16ff\LL	16ee-\LL	32ff\LLL 32ee-\	.
.	.	.	.	32ff\ 32ee-\	.
.	.	16ff\	16ee-\	32ff\ 32ee-\	.
.	.	.	.	32ff\ 32ee-\	.
.	8d-'\)	16ff\	16ee-\	32ff\ 32ee-\	.
.	.	.	.	32ff\ 32ee-\	.
.	.	16ff\JJ	16ee-\JJ	32ff\ 32ee-\	.
.	.	.	.	32ff\JJJ 32ee-\	.
.	(8d-'\	16ff\LL	16dd-\LL	32ff\LLL 32dd-\	.
.	.	.	.	32ff\ 32dd-\	.
.	.	16ff\	16dd-\	32ff\ 32dd-\	.
.	.	.	.	32ff\ 32dd-\	.
.	8d-'\J)	16ff\	16dd-\	32ff\ 32dd-\	.
.	.	.	.	32ff\ 32dd-\	.
.	.	16ff\JJ	16dd-\JJ	32ff\ 32dd-\	.
.	.	.	.	32ff\JJJ 32dd-\	.
=54	=54	=54	=54	=54	=54
1r	(8c'\L	16gg\LL	16een\LL	32een\LLL 32cc\	.
.	.	.	.	32ee\ 32cc\	.
.	.	16gg\	16ee\	32ee\ 32cc\	.
.	.	.	.	32ee\ 32cc\	.
.	8c'\)	16gg\	16ee\	32ee\ 32cc\	.
.	.	.	.	32ee\ 32cc\	.
.	.	16gg\JJ	16ee\JJ	32ee\ 32cc\	.
.	.	.	.	32ee\JJJ 32cc\	.
.	(8c'\	16aa-\LL	16ff\LL	32ff\LLL 32cc\	.
.	.	.	.	32ff\ 32cc\	.
.	.	16aa-\	16ff\	32ff\ 32cc\	.
.	.	.	.	32ff\ 32cc\	.
.	8c'\J)	16aa-\	16ff\	32ff\ 32cc\	.
.	.	.	.	32ff\ 32cc\	.
.	.	16aa-\JJ	16ff\JJ	32ff\ 32cc\	.
.	.	.	.	32ff\JJJ 32cc\	.
.	(8c'\L	16een\LL	16gg\LL	32gg\LLL 32cc\	.
.	.	.	.	32gg\ 32cc\	.
.	.	16ee\	16gg\	32gg\ 32cc\	.
.	.	.	.	32gg\ 32cc\	.
.	8c'\)	16ee\	16gg\	32gg\ 32cc\	.
.	.	.	.	32gg\ 32cc\	.
.	.	16ee\JJ	16gg\JJ	32gg\ 32cc\	.
.	.	.	.	32gg\JJJ 32cc\	.
.	(8c'\	16ff\LL	16aa-\LL	32aa-\LLL 32cc\	.
.	.	.	.	32aa-\ 32cc\	.
.	.	16ff\	16aa-\	32aa-\ 32cc\	.
.	.	.	.	32aa-\ 32cc\	.
.	8c'\J)	16ff\	16aa-\	32aa-\ 32cc\	.
.	.	.	.	32aa-\ 32cc\	.
.	.	16ff\JJ	16aa-\JJ	32aa-\ 32cc\	.
.	.	.	.	32aa-\JJJ 32cc\	.
=55	=55	=55	=55	=55	=55
1r	(8c'\L	16gg\LL	16bb-\LL	32bb-\LLL 32cc\	.
.	.	.	.	32bb-\ 32cc\	.
.	.	16gg\	16bb-\	32bb-\ 32cc\	.
.	.	.	.	32bb-\ 32cc\	.
.	8c'\)	16gg\	16bb-\	32bb-\ 32cc\	.
.	.	.	.	32bb-\ 32cc\	.
.	.	16gg\JJ	16bb-\JJ	32bb-\ 32cc\	.
.	.	.	.	32bb-\JJJ 32cc\	.
.	(8c'\	16ff\LL	16aa-\LL	32aa-\LLL 32cc\	.
.	.	.	.	32aa-\ 32cc\	.
.	.	16ff\	16aa-\	32aa-\ 32cc\	.
.	.	.	.	32aa-\ 32cc\	.
.	8c'\J)	16ff\	16aa-\	32aa-\ 32cc\	.
.	.	.	.	32aa-\ 32cc\	.
.	.	16ff\JJ	16aa-\JJ	32aa-\ 32cc\	.
.	.	.	.	32aa-\JJJ 32cc\	.
.	(8c'\L	16een\LL	16gg\LL	32gg\LLL 32cc\	.
.	.	.	.	32gg\ 32cc\	.
.	.	16ee\	16gg\	32gg\ 32cc\	.
.	.	.	.	32gg\ 32cc\	.
.	8c'\)	16ee\	16gg\	32gg\ 32cc\	.
.	.	.	.	32gg\ 32cc\	.
.	.	16ee\JJ	16gg\JJ	32gg\ 32cc\	.
.	.	.	.	32gg\JJJ 32cc\	.
.	(8c'\	16aa-\LL	16ff\LL	32ff\LLL 32cc\	.
.	.	.	.	32ff\ 32cc\	.
.	.	16aa-\	16ff\	32ff\ 32cc\	.
.	.	.	.	32ff\ 32cc\	.
.	8c'\J)	16aa-\	16ff\	32ff\ 32cc\	.
.	.	.	.	32ff\ 32cc\	.
.	.	16aa-\JJ	16ff\JJ	32ff\ 32cc\	.
.	.	.	.	32ff\JJJ 32cc\	.
=56	=56	=56	=56	=56	=56
*	*	*	*	*^	*
4C/	4c\	16gg\LL	16een\LL	16cc\LL	4een/	n
.	.	32een\L	32gg\L	32gg\L	.	.
.	.	32ee\	32gg\	32gg\	.	.
.	.	32ee\	32gg\	32gg\	.	.
.	.	32ee\	32gg\	32gg\	.	.
.	.	32ee\	32gg\	32gg\	.	.
.	.	32ee\JJJ	32gg\JJJ	32gg\JJJ	.	.
*	*	*	*	*v	*v	*
*	*	*	*	*	*
!	!	!	!	!	!
!	!	!	!	!	!
!	!	!	!	!	!
!	!	!	!	!	!
!	!	!	!	!	!
!	!	!	!	!	!
!	!	!	!	!	!
*	*	*	*	*	*
4r	4r	16ee\LL	16gg\LL	16gg\LL	.
.	.	16ee\	16gg\	16gg\	.
.	.	16ee\	16gg\	16gg\	.
.	.	16ee\JJ	16gg\JJ	16gg\JJ	.
16F/LL	16cc\LL	16ff\LL	16aa-\LL	16aa-\LL	.
16FF/	16a-\	16cc\	16cc\	16cc\	.
16F/	16cc\	16ff\	16aa-\	16aa-\	.
16FF/JJ	16a-\JJ	16cc\JJ	16cc\JJ	16cc\JJ	.
16F/LL	16cc\LL	16ff\LL	16aa-\LL	16aa-\LL	.
16FF/	16a-\	16cc\	16cc\	16cc\	.
16F/	16cc\	16ff\	16aa-\	16aa-\	.
16FF/JJ	16a-\JJ	16cc\JJ	16cc\JJ	16cc\JJ	.
=57	=57	=57	=57	=57	=57
4BB-/	4a-\	16ff\LL	16dd-\LL	16dd-\LL	.
.	.	32ff\L	32dd-\L	32dd-\L	.
.	.	32ff\	32dd-\	32dd-\	.
.	.	32ff\	32dd-\	32dd-\	.
.	.	32ff\	32dd-\	32dd-\	.
.	.	32ff\	32dd-\	32dd-\	.
.	.	32ff\JJJ	32dd-\JJJ	32dd-\JJJ	.
4r	4r	16ff\LL	16dd-\LL	16dd-\LL	.
.	.	16ff\	16dd-\	16dd-\	.
.	.	16ff\	16dd-\	16dd-\	.
.	.	16ff\JJ	16dd-\JJ	16dd-\JJ	.
16E-/LL	16b-\LL	16ee-\LL	16gg\LL	16gg\LL	.
16EE-/	16g\	16b-\	16dd-\	16dd-\	.
16E-/	16b-\	16ee-\	16gg\	16gg\	.
16EE-/JJ	16g\JJ	16b-\JJ	16dd-\JJ	16dd-\JJ	.
16E-/LL	16b-\LL	16ee-\LL	16gg\LL	16gg\LL	.
16EE-/	16g\	16b-\	16dd-\	16dd-\	.
16E-/	16b-\	16ee-\	16gg\	16gg\	.
16EE-/JJ	16g\JJ	16b-\JJ	16dd-\JJ	16dd-\JJ	.
=58	=58	=58	=58	=58	=58
4AA-/	4g\	16ee-\LL	16cc\LL	16cc\LL	.
.	.	32ee-\L	32cc\L	32cc\L	.
.	.	32ee-\	32cc\	32cc\	.
.	.	32ee-\	32cc\	32cc\	.
.	.	32ee-\	32cc\	32cc\	.
.	.	32ee-\	32cc\	32cc\	.
.	.	32ee-\JJJ	32cc\JJJ	32cc\JJJ	.
4r	4r	16ee-\LL	16cc\LL	16cc\LL	.
.	.	16ee-\	16cc\	16cc\	.
.	.	16ee-\	16cc\	16cc\	.
.	.	16ee-\JJ	16cc\JJ	16cc\JJ	.
16D-/LL	16a-\LL	16dd-\LL	16ff\LL	16ff\LL	.
16DD-/	16f\	16a-\	16cc\	16cc\	.
16D-/	16a-\	16dd-\	16ff\	16ff\	.
16DD-/JJ	16f\JJ	16a-\JJ	16cc\JJ	16cc\JJ	.
16D-/LL	16a-\LL	16dd-\LL	16ff\LL	16ff\LL	.
16DD-/	16f\	16a-\	16cc\	16cc\	.
16D-/	16a-\	16dd-\	16ff\	16ff\	.
16DD-/JJ	16f\JJ	16a-\JJ	16cc\JJ	16cc\JJ	.
=59	=59	=59	=59	=59	=59
4GG/	4f\	16dd-\LL	16b-\LL	16b-\LL	.
.	.	32dd-\L	32b-\L	32b-\L	.
.	.	32dd-\	32b-\	32b-\	.
.	.	32dd-\	32b-\	32b-\	.
.	.	32dd-\	32b-\	32b-\	.
.	.	32dd-\	32b-\	32b-\	.
.	.	32dd-\JJJ	32b-\JJJ	32b-\JJJ	.
4r	4r	16dd-\LL	16b-\LL	16b-\LL	.
.	.	16dd-\	16b-\	16b-\	.
.	.	16dd-\	16b-\	16b-\	.
.	.	16dd-\JJ	16b-\JJ	16b-\JJ	.
16c\LL	16g\LL	32cc\LLL	32een\LLL	32een\LLL	7 n
.	.	32een\	32gg\	32gg\	.
16C\	16en\	32gg\	32bb-\	32bb-\	.
.	.	32ee\JJJ	32gg\JJJ	32gg\JJJ	.
16c\	16g\	32cc\LLL	32ee\LLL	32ee\LLL	.
.	.	32ee\	32gg\	32gg\	.
16C\JJ	16e\JJ	32gg\	32bb-\	32bb-\	.
.	.	32ee\JJJ	32gg\JJJ	32gg\JJJ	.
16c\LL	16g\LL	32cc\LLL	32ee\LLL	32ee\LLL	.
.	.	32ee\	32gg\	32gg\	.
16C\	16e\	32gg\	32bb-\	32bb-\	.
.	.	32ee\JJJ	32gg\JJJ	32gg\JJJ	.
16c\	16g\	32cc\LLL	32ee\LLL	32ee\LLL	.
.	.	32ee\	32gg\	32gg\	.
16C\JJ	16e\JJ	32gg\	32bb-\	32bb-\	.
.	.	32ee\JJJ	32gg\JJJ	32gg\JJJ	.
=60	=60	=60	=60	=60	=60
16F\LL	16c\LL	16ff\LL	16aa-\LL	16aa-\LL	.
32F\L	32c\L	32ff\L	32aa-\L	32aa-\L	.
32F\	32c\	32ff\	32aa-\	32aa-\	.
32F\	32c\	32ff\	32aa-\	32aa-\	.
32F\	32c\	32ff\	32aa-\	32aa-\	.
32F\	32c\	32ff\	32aa-\	32aa-\	.
32F\JJJ	32c\JJJ	32ff\JJJ	32aa-\JJJ	32aa-\JJJ	.
16F\LL	16c\LL	16ff\LL	16aa-\LL	16aa-\LL	.
16F\	16c\	16ff\	16aa-\	16aa-\	.
16F\	16c\	16ff\	16aa-\	16aa-\	.
16F\JJ	16c\JJ	16ff\JJ	16aa-\JJ	16aa-\JJ	.
16BB-/LL	16d-\LL	16ff\LL	16gg\LL	16gg\LL	6 5
32BB-/L	32d-\L	32ff\L	32gg\L	32gg\L	.
32BB-/	32d-\	32ff\	32gg\	32gg\	.
32BB-/	32d-\	32ff\	32gg\	32gg\	.
32BB-/	32d-\	32ff\	32gg\	32gg\	.
32BB-/	32d-\	32ff\	32gg\	32gg\	.
32BB-/JJJ	32d-\JJJ	32ff\JJJ	32gg\JJJ	32gg\JJJ	.
16BB-/LL	16d-\LL	16ff\LL	16gg\LL	16gg\LL	.
16BB-/	16d-\	16ff\	16gg\	16gg\	.
16BB-/	16d-\	16ff\	16gg\	16gg\	.
16BB-/JJ	16d-\JJ	16ff\JJ	16gg\JJ	16gg\JJ	.
=61	=61	=61	=61	=61	=61
16C/LL	16c\LL	16een\LL	16gg\LL	16gg\LL	n
32C/L	32c\L	32ee\L	32gg\L	32gg\L	.
32C/	32c\	32ee\	32gg\	32gg\	.
32C/	32c\	32ee\	32gg\	32gg\	.
32C/	32c\	32ee\	32gg\	32gg\	.
32C/	32c\	32ee\	32gg\	32gg\	.
32C/JJJ	32c\JJJ	32ee\JJJ	32gg\JJJ	32gg\JJJ	.
16C/LL	16c\LL	16ee\LL	16gg\LL	16gg\LL	.
16C/	16c\	16ee\	16gg\	16gg\	.
16C/	16c\	16ee\	16gg\	16gg\	.
16C/JJ	16c\JJ	16ee\JJ	16gg\JJ	16gg\JJ	.
16FF\LL	16A-\LL	16ff/LL	16ff/LL	16ff/LL	.
32F\L	32c\L	32f/L	32a-/L	32a-/L	.
32F\	32c\	32f/	32a-/	32a-/	.
32F\	32c\	32f/	32a-/	32a-/	.
32F\	32c\	32f/	32a-/	32a-/	.
32F\	32c\	32f/	32a-/	32a-/	.
32F\JJJ	32c\JJJ	32f/JJJ	32a-/JJJ	32a-/JJJ	.
16F\LL	16c\LL	16f/LL	16a-/LL	16a-/LL	.
16F\	16c\	16f/	16a-/	16a-/	.
16F\	16c\	16f/	16a-/	16a-/	.
16F\JJ	16c\JJ	16f/JJ	16a-/JJ	16a-/JJ	.
=62	=62	=62	=62	=62	=62
16BB-/LL	16d-\LL	16f/LL	16g/LL	16g/LL	6 5
32BB-/L	32d-\L	32f/L	32g/L	32g/L	.
32BB-/	32d-\	32f/	32g/	32g/	.
32BB-/	32d-\	32f/	32g/	32g/	.
32BB-/	32d-\	32f/	32g/	32g/	.
32BB-/	32d-\	32f/	32g/	32g/	.
32BB-/JJJ	32d-\JJJ	32f/JJJ	32g/JJJ	32g/JJJ	.
16BB-/LL	16d-\LL	16f/LL	16g/LL	16g/LL	.
16BB-/	16d-\	16f/	16g/	16g/	.
16BB-/	16d-\	16f/	16g/	16g/	.
16BB-/JJ	16d-\JJ	16f/JJ	16g/JJ	16g/JJ	.
16C/LL	16c\LL	16en/LL	16g/LL	16g/LL	n
32C/L	32c\L	32e/L	32g/L	32g/L	.
32C/	32c\	32e/	32g/	32g/	.
32C/	32c\	32e/	32g/	32g/	.
32C/	32c\	32e/	32g/	32g/	.
32C/	32c\	32e/	32g/	32g/	.
32C/JJJ	32c\JJJ	32e/JJJ	32g/JJJ	32g/JJJ	.
16C/LL	16c\LL	16e/LL	16g/LL	16g/LL	.
16C/	16c\	16e/	16g/	16g/	.
16C/	16c\	16e/	16g/	16g/	.
16C/JJ	16c\JJ	16e/JJ	16g/JJ	16g/JJ	.
=63	=63	=63	=63	=63	=63
1FF;/	1A-;/	1f;/	1f;/	1f;/	.
==|!	==|!	==|!	==|!	==|!	==|!
!!!CDT: 1678/3/4/-1741/7/28
!!!OCY: Italia
!!!ODE: Count Wenzeslaus von Morzin of Bohemia; Count Wenceslas of Morzin
!!!ODT: 1725///
!!!OPC: Venezia; Venice
!!!AGN: concerto
!!!AST: baroque
!!!AMT: simple quadruple
!!!PPR: Michel-Charles Le Ce`ne
!!!PC#: Le Cene No. 520
!!!PDT: 1725///
!!!PPP: Amsterdam
!!!SCT: RV 297
!!!SMA1: The cooperation of the following libraries is gratefully acknowledged:
!!!SMA2: Saechsische Landesbibliothek, Dresden; Biblioteca Nazionale
!!!SMA3: Universitaria, Turin; Henry Watson Music Library, Manchester.
!!!YOR: New York: Dover Publications, Inc. 1995
!!!AIN: cello cemba viola violn
!!!EEV: 1.0
!!!RDT: 1994/4/7/
!!!YER: 1996/10/31/
!!!YEP: Center for Computer Assisted Research in the Humanities
!!!YEN: United States of America
!!!EFL: 1/3
!!!ENC: Edmund Correia, Jr.
!!!EED: Eleanor Selfridge-Field
*-	*-	*-	*-	*-	*-
